; #disp params :
; Printmode:0
; Layer:285
; Xmin:53.006 mm
; Xmax:162.222 mm
; XDimension:109.216 mm
; Ymin:24.217 mm
; Ymax:90.852 mm
; YDimension:66.635 mm
; Zmax:57.11 mm
; E0diam:0.45 mm
; E0len:3.93786 m
; E0temp:253 C
; E1diam:0.45 mm
; E1len:3.7588 m
; E1temp:209 C
; Bedtemp:253 C
; Time:470.449 min
; #params end
; GCode generated by CraftWare

G28 ; home all axes
G29; Probe bed leveling
M82: Set extruder to absolute mode

M425 S1; Wiper Strip enabled
M430 Z0 F600; Head change ZHop settings
M431 E4 F3000; Head change Exit Retract settings
M432 E0 F3000; Head change Enter Retract settings
M433 E4 F3000; Head change Enter Prime settings

M9006 S0; Selected Normal Dual Extruder Mode
M104 T0 S253 ;set head temp 1 (no wait)
M104 T1 S209 ;set head temp 2 (no wait)
M190 S103 ;set bed temp (wait)
M109 T0 S253 ;set head temp 1 (wait)
M104 T1 S209 ;set head temp 2 (no wait)

; ------------------------------------
; Raft Layer #0
; ------------------------------------
G21 ; mm
G90 ; abs
G92 E0 ;reset extr
T0 X107.247 Y31.052 Z0.310 F5400
G92 E0 ;reset extr
;segType:Skirt
G1 X107.541 Y31.199 E0.01535 F1200
G1 X110.187 Y28.553 E0.19036
G1 X115.699 Y25.246 E0.49104
G1 X116.140 Y25.099 E0.51279
G1 X116.434 Y24.805 E0.53223
G1 X116.875 Y24.658 E0.55397
G1 X117.610 Y24.217 E0.59406
G1 X122.314 Y24.217 E0.81407
G1 X126.430 Y28.332 E1.08631
G1 X126.503 Y28.847 E1.11063
G1 X126.503 Y32.963 E1.30313
G1 X126.723 Y33.330 E1.32316
G1 X127.017 Y33.624 E1.34261
G1 X127.091 Y34.139 E1.36693
G1 X127.091 Y35.903 E1.44943
G1 X127.017 Y36.418 E1.47375
G1 X126.723 Y36.712 E1.49320
G1 X126.503 Y37.079 E1.51322
G1 X126.503 Y37.667 E1.54072
G1 X126.576 Y38.181 E1.56502
G1 X127.458 Y39.063 E1.62335
G1 X128.634 Y37.887 E1.70114
G1 X131.280 Y37.887 E1.82489
G1 X132.456 Y39.063 E1.90267
G1 X133.632 Y37.887 E1.98046
G1 X136.278 Y37.887 E2.10421
G1 X137.454 Y39.063 E2.18199
G1 X138.630 Y37.887 E2.25978
G1 X141.276 Y37.887 E2.38353
G1 X141.864 Y38.475 E2.42242
G1 X141.937 Y37.961 E2.44671
G1 X141.937 Y28.553 E2.88672
G1 X142.158 Y28.185 E2.90678
G1 X146.127 Y24.217 E3.16930
G1 X150.830 Y24.217 E3.38931
G1 X151.271 Y24.364 E3.41105
G1 X154.946 Y26.569 E3.61149
G1 X155.387 Y26.716 E3.63323
G1 X155.681 Y27.010 E3.65268
G1 X156.122 Y27.157 E3.67442
G1 X157.960 Y28.259 E3.77466
G1 X162.222 Y32.522 E4.05662
G1 X162.222 Y33.110 E4.08412
G1 X162.002 Y33.478 E4.10419
G1 X161.561 Y34.801 E4.16941
G1 X161.340 Y35.168 E4.18944
G1 X161.340 Y35.462 E4.20319
G1 X161.194 Y35.609 E4.21291
G1 X161.194 Y35.903 E4.22666
G1 X161.047 Y36.050 E4.23638
G1 X161.047 Y36.344 E4.25013
G1 X160.826 Y36.712 E4.27019
G1 X160.385 Y38.035 E4.33542
G1 X160.165 Y38.402 E4.35544
G1 X160.165 Y38.696 E4.36919
G1 X160.018 Y38.843 E4.37892
G1 X160.018 Y39.137 E4.39267
G1 X159.871 Y39.284 E4.40239
G1 X159.871 Y39.578 E4.41614
G1 X159.650 Y39.945 E4.43620
G1 X159.209 Y41.268 E4.50142
G1 X158.989 Y41.636 E4.52145
G1 X158.989 Y41.930 E4.53520
G1 X158.842 Y42.077 E4.54492
G1 X158.842 Y42.371 E4.55867
G1 X158.695 Y42.518 E4.56840
G1 X158.695 Y42.811 E4.58215
G1 X158.474 Y43.179 E4.60221
G1 X158.033 Y44.502 E4.66743
G1 X157.813 Y44.869 E4.68746
G1 X157.813 Y45.163 E4.70121
G1 X157.666 Y45.310 E4.71093
G1 X157.666 Y45.604 E4.72468
G1 X157.519 Y45.751 E4.73441
G1 X157.519 Y46.045 E4.74816
G1 X157.298 Y46.413 E4.76822
G1 X156.857 Y47.736 E4.83344
G1 X156.637 Y48.103 E4.85347
G1 X156.637 Y48.397 E4.86722
G1 X156.490 Y48.544 E4.87694
G1 X156.490 Y48.838 E4.89069
G1 X156.343 Y48.985 E4.90041
G1 X156.343 Y49.279 E4.91416
G1 X156.122 Y49.647 E4.93423
G1 X155.681 Y50.970 E4.99945
G1 X155.461 Y51.337 E5.01948
G1 X155.461 Y51.631 E5.03323
G1 X155.314 Y51.778 E5.04295
G1 X155.314 Y52.072 E5.05670
G1 X155.167 Y52.219 E5.06642
G1 X155.167 Y52.513 E5.08017
G1 X154.946 Y52.881 E5.10023
G1 X154.505 Y54.204 E5.16546
G1 X154.285 Y54.571 E5.18548
G1 X154.285 Y54.865 E5.19923
G1 X154.138 Y55.012 E5.20896
G1 X154.138 Y55.306 E5.22271
G1 X153.991 Y55.453 E5.23243
G1 X153.991 Y55.747 E5.24618
G1 X153.844 Y55.894 E5.25590
G1 X153.844 Y56.188 E5.26965
G1 X153.623 Y56.556 E5.28972
G1 X153.182 Y57.879 E5.35494
G1 X152.962 Y58.246 E5.37497
G1 X152.962 Y58.540 E5.38872
G1 X152.815 Y58.687 E5.39844
G1 X152.815 Y58.981 E5.41219
G1 X152.668 Y59.128 E5.42191
G1 X152.668 Y59.422 E5.43566
G1 X152.447 Y59.789 E5.45573
G1 X152.006 Y61.112 E5.52095
G1 X151.786 Y61.480 E5.54097
G1 X151.786 Y61.774 E5.55472
G1 X151.639 Y61.921 E5.56445
G1 X151.639 Y62.214 E5.57820
G1 X151.492 Y62.361 E5.58792
G1 X151.492 Y62.655 E5.60167
G1 X151.271 Y63.023 E5.62173
G1 X150.830 Y64.346 E5.68696
G1 X150.610 Y64.713 E5.70698
G1 X150.610 Y65.007 E5.72073
G1 X150.463 Y65.154 E5.73046
G1 X150.463 Y65.448 E5.74421
G1 X146.347 Y69.564 E6.01645
G1 X145.980 Y69.785 E6.03651
G1 X127.164 Y69.785 E6.91653
G1 X124.091 Y69.785 E7.06030
G0 X107.247 Y31.052 F5400
G0 X107.541 Y31.640
G1 X110.187 Y28.994 E7.23531 F1200
G1 X115.699 Y25.687 E7.53599
G1 X116.140 Y25.540 E7.55774
G1 X116.434 Y25.246 E7.57718
G1 X116.875 Y25.099 E7.59892
G1 X117.610 Y24.658 E7.63901
G1 X122.314 Y24.658 E7.85902
G1 X125.842 Y28.185 E8.09237
G1 X126.062 Y28.553 E8.11243
G1 X126.062 Y32.669 E8.30493
G1 X126.136 Y33.183 E8.32922
G1 X126.430 Y33.477 E8.34867
G1 X126.650 Y33.845 E8.36873
G1 X126.650 Y36.197 E8.47874
G1 X126.430 Y36.565 E8.49880
G1 X126.136 Y36.859 E8.51825
G1 X126.062 Y37.373 E8.54254
G1 X126.062 Y37.961 E8.57004
G1 X126.283 Y38.328 E8.59006
G1 X127.458 Y39.504 E8.66785
G1 X128.634 Y38.328 E8.74563
G1 X131.280 Y38.328 E8.86938
G1 X132.456 Y39.504 E8.94717
G1 X133.632 Y38.328 E9.02495
G1 X136.278 Y38.328 E9.14870
G1 X137.454 Y39.504 E9.22649
G1 X138.630 Y38.328 E9.30427
G1 X141.276 Y38.328 E9.42802
G1 X142.305 Y39.357 E9.49608
G1 X142.378 Y38.843 E9.52037
G1 X142.378 Y28.847 E9.98788
G1 X142.452 Y28.332 E10.01221
G1 X146.127 Y24.658 E10.25528
G1 X150.830 Y24.658 E10.47528
G1 X151.271 Y24.805 E10.49702
G1 X154.946 Y27.010 E10.69747
G1 X155.387 Y27.157 E10.71921
G1 X155.681 Y27.450 E10.73865
G1 X156.122 Y27.597 E10.76039
G1 X157.960 Y28.700 E10.86063
G1 X161.781 Y32.522 E11.11343
G1 X161.781 Y33.110 E11.14093
G1 X161.561 Y33.478 E11.16099
G1 X161.120 Y34.801 E11.22622
G1 X160.900 Y35.168 E11.24624
G1 X160.900 Y35.462 E11.25999
G1 X160.753 Y35.609 E11.26971
G1 X160.753 Y35.903 E11.28347
G1 X160.606 Y36.050 E11.29319
G1 X160.606 Y36.344 E11.30694
G1 X160.385 Y36.712 E11.32700
G1 X159.944 Y38.035 E11.39222
G1 X159.724 Y38.402 E11.41225
G1 X159.724 Y38.696 E11.42600
G1 X159.577 Y38.843 E11.43572
G1 X159.577 Y39.137 E11.44947
G1 X159.430 Y39.284 E11.45920
G1 X159.430 Y39.578 E11.47295
G1 X159.209 Y39.945 E11.49301
G1 X158.768 Y41.268 E11.55823
G1 X158.548 Y41.636 E11.57826
G1 X158.548 Y41.930 E11.59201
G1 X158.401 Y42.077 E11.60173
G1 X158.401 Y42.371 E11.61548
G1 X158.254 Y42.518 E11.62520
G1 X158.254 Y42.811 E11.63895
G1 X158.033 Y43.179 E11.65902
G1 X157.592 Y44.502 E11.72424
G1 X157.372 Y44.869 E11.74427
G1 X157.372 Y45.163 E11.75802
G1 X157.225 Y45.310 E11.76774
G1 X157.225 Y45.604 E11.78149
G1 X157.078 Y45.751 E11.79121
G1 X157.078 Y46.045 E11.80496
G1 X156.857 Y46.413 E11.82503
G1 X156.416 Y47.736 E11.89025
G1 X156.196 Y48.103 E11.91028
G1 X156.196 Y48.397 E11.92403
G1 X156.049 Y48.544 E11.93375
G1 X156.049 Y48.838 E11.94750
G1 X155.902 Y48.985 E11.95722
G1 X155.902 Y49.279 E11.97097
G1 X155.681 Y49.647 E11.99103
G1 X155.240 Y50.970 E12.05626
G1 X155.020 Y51.337 E12.07628
G1 X155.020 Y51.631 E12.09003
G1 X154.873 Y51.778 E12.09976
G1 X154.873 Y52.072 E12.11351
G1 X154.726 Y52.219 E12.12323
G1 X154.726 Y52.513 E12.13698
G1 X154.505 Y52.881 E12.15704
G1 X154.064 Y54.204 E12.22227
G1 X153.844 Y54.571 E12.24229
G1 X153.844 Y54.865 E12.25604
G1 X153.697 Y55.012 E12.26577
G1 X153.697 Y55.306 E12.27952
G1 X153.550 Y55.453 E12.28924
G1 X153.550 Y55.747 E12.30299
G1 X153.403 Y55.894 E12.31271
G1 X153.403 Y56.188 E12.32646
G1 X153.182 Y56.556 E12.34652
G1 X152.741 Y57.879 E12.41175
G1 X152.521 Y58.246 E12.43177
G1 X152.521 Y58.540 E12.44552
G1 X152.374 Y58.687 E12.45525
G1 X152.374 Y58.981 E12.46900
G1 X152.227 Y59.128 E12.47872
G1 X152.227 Y59.422 E12.49247
G1 X152.006 Y59.789 E12.51253
G1 X151.565 Y61.112 E12.57776
G1 X151.345 Y61.480 E12.59778
G1 X151.345 Y61.774 E12.61153
G1 X151.198 Y61.921 E12.62126
G1 X151.198 Y62.214 E12.63501
G1 X151.051 Y62.361 E12.64473
G1 X151.051 Y62.655 E12.65848
G1 X150.830 Y63.023 E12.67854
G1 X150.389 Y64.346 E12.74376
G1 X150.169 Y64.713 E12.76379
G1 X150.169 Y65.007 E12.77754
G1 X150.022 Y65.154 E12.78726
G1 X150.022 Y65.448 E12.80101
G1 X146.200 Y69.270 E13.05381
G1 X145.686 Y69.344 E13.07813
G1 X126.870 Y69.344 E13.95815
G1 X122.755 Y69.344 E14.15065
G1 X122.240 Y69.270 E14.17498
G1 X118.565 Y65.595 E14.41805
G1 X118.565 Y65.301 E14.43180
G1 X118.345 Y64.934 E14.45182
G1 X117.757 Y63.170 E14.53879
G1 X117.536 Y62.802 E14.55885
G1 X117.536 Y62.508 E14.57260
G1 X117.389 Y62.361 E14.58232
G1 X117.389 Y62.067 E14.59607
G1 X117.242 Y61.921 E14.60580
G1 X117.242 Y61.627 E14.61955
G1 X117.022 Y61.259 E14.63957
G1 X116.655 Y61.480 E14.65960
G1 X116.361 Y61.774 E14.67904
G1 X115.846 Y61.847 E14.70337
G1 X114.082 Y61.847 E14.78587
G1 X113.567 Y61.774 E14.81019
G1 X112.685 Y60.892 E14.86853
G1 X112.392 Y60.745 E14.88388
G1 X111.510 Y61.627 E14.94221
G1 X111.142 Y61.847 E14.96228
G1 X108.790 Y61.847 E15.07228
G1 X108.423 Y61.627 E15.09234
G1 X107.541 Y60.745 E15.15068
G1 X107.247 Y60.892 E15.16603
G1 X106.365 Y61.774 E15.22437
G1 X105.851 Y61.847 E15.24869
G1 X104.087 Y61.847 E15.33119
G1 X103.572 Y61.774 E15.35551
G1 X102.690 Y60.892 E15.41385
G1 X102.397 Y60.745 E15.42920
G1 X101.515 Y61.627 E15.48754
G1 X101.147 Y61.847 E15.50760
G1 X98.795 Y61.847 E15.61760
G1 X98.427 Y61.627 E15.63766
G1 X98.133 Y61.333 E15.65711
G1 X97.766 Y61.112 E15.67714
G1 X97.546 Y61.480 E15.69716
G1 X97.546 Y61.774 E15.71091
G1 X97.399 Y61.921 E15.72063
G1 X97.399 Y62.214 E15.73438
G1 X97.252 Y62.361 E15.74411
G1 X97.252 Y62.655 E15.75786
G1 X97.031 Y63.023 E15.77792
G1 X96.443 Y64.787 E15.86488
G1 X96.223 Y65.154 E15.88491
G1 X96.223 Y65.448 E15.89866
G1 X92.695 Y68.976 E16.13201
G1 X92.327 Y69.197 E16.15207
G1 X73.512 Y69.197 E17.03209
G1 X68.808 Y69.197 E17.25210
G1 X68.441 Y68.976 E17.27216
G1 X64.766 Y65.301 E17.51523
G1 X64.766 Y65.007 E17.52898
G1 X64.619 Y64.860 E17.53871
G1 X64.619 Y64.566 E17.55246
G1 X64.399 Y64.199 E17.57248
G1 X63.958 Y62.876 E17.63771
G1 X63.737 Y62.508 E17.65777
G1 X63.737 Y62.214 E17.67152
G1 X63.590 Y62.067 E17.68124
G1 X63.590 Y61.774 E17.69499
G1 X63.443 Y61.627 E17.70472
G1 X63.443 Y61.333 E17.71847
G1 X63.223 Y60.965 E17.73849
G1 X62.782 Y59.642 E17.80372
G1 X62.561 Y59.275 E17.82378
G1 X62.561 Y58.981 E17.83753
G1 X62.414 Y58.834 E17.84725
G1 X62.414 Y58.540 E17.86100
G1 X62.267 Y58.393 E17.87073
G1 X62.267 Y58.099 E17.88448
G1 X62.047 Y57.732 E17.90450
G1 X61.606 Y56.409 E17.96973
G1 X61.385 Y56.041 E17.98979
G1 X61.385 Y55.747 E18.00354
G1 X61.238 Y55.600 E18.01326
G1 X61.238 Y55.306 E18.02701
G1 X61.091 Y55.159 E18.03674
G1 X61.091 Y54.865 E18.05049
G1 X60.944 Y54.718 E18.06021
G1 X60.944 Y54.424 E18.07396
G1 X60.724 Y54.057 E18.09399
G1 X60.283 Y52.734 E18.15921
G1 X60.062 Y52.366 E18.17927
G1 X60.062 Y52.072 E18.19302
G1 X59.915 Y51.925 E18.20275
G1 X59.915 Y51.631 E18.21650
G1 X59.768 Y51.484 E18.22622
G1 X59.768 Y51.190 E18.23997
G1 X59.548 Y50.823 E18.26000
G1 X59.107 Y49.500 E18.32522
G1 X58.886 Y49.132 E18.34528
G1 X58.886 Y48.838 E18.35903
G1 X58.739 Y48.691 E18.36876
G1 X58.739 Y48.397 E18.38251
G1 X58.592 Y48.250 E18.39223
G1 X58.592 Y47.956 E18.40598
G1 X58.372 Y47.589 E18.42601
G1 X57.931 Y46.266 E18.49123
G1 X57.710 Y45.898 E18.51129
G1 X57.710 Y45.604 E18.52504
G1 X57.563 Y45.457 E18.53477
G1 X57.563 Y45.163 E18.54852
G1 X57.416 Y45.016 E18.55824
G1 X57.416 Y44.722 E18.57199
G1 X57.196 Y44.355 E18.59201
G1 X56.755 Y43.032 E18.65724
G1 X56.534 Y42.664 E18.67730
G1 X56.534 Y42.371 E18.69105
G1 X56.387 Y42.224 E18.70078
G1 X56.387 Y41.930 E18.71453
G1 X56.240 Y41.783 E18.72425
G1 X56.240 Y41.489 E18.73800
G1 X56.020 Y41.121 E18.75802
G1 X55.579 Y39.798 E18.82325
G1 X55.358 Y39.431 E18.84331
G1 X55.358 Y39.137 E18.85706
G1 X55.211 Y38.990 E18.86679
G1 X55.211 Y38.696 E18.88054
G1 X55.064 Y38.549 E18.89026
G1 X55.064 Y38.255 E18.90401
G1 X54.844 Y37.888 E18.92403
G1 X54.403 Y36.565 E18.98926
G1 X54.182 Y36.197 E19.00932
G1 X54.182 Y35.903 E19.02307
G1 X54.035 Y35.756 E19.03280
G1 X54.035 Y35.462 E19.04655
G1 X53.888 Y35.315 E19.05627
G1 X53.888 Y35.021 E19.07002
G1 X53.668 Y34.654 E19.09004
G1 X53.227 Y33.331 E19.15527
G1 X53.006 Y32.963 E19.17533
G1 X53.006 Y32.375 E19.20283
G1 X56.828 Y28.553 E19.45563
G1 X57.931 Y27.891 E19.51578
G1 X58.372 Y27.744 E19.53752
G1 X58.666 Y27.450 E19.55697
G1 X59.107 Y27.303 E19.57871
G1 X62.782 Y25.099 E19.77915
G1 X63.223 Y24.952 E19.80089
G1 X63.517 Y24.658 E19.82034
G1 X63.958 Y24.511 E19.84208
G1 X68.661 Y24.511 E20.06209
G1 X72.189 Y28.038 E20.29544
G1 X72.410 Y28.406 E20.31550
G1 X72.410 Y38.990 E20.81051
G1 X72.483 Y39.504 E20.83480
G1 X73.659 Y38.328 E20.91259
G1 X76.305 Y38.328 E21.03634
G1 X77.481 Y39.504 E21.11412
G1 X78.657 Y38.328 E21.19191
G1 X81.303 Y38.328 E21.31566
G1 X82.479 Y39.504 E21.39344
G1 X83.655 Y38.328 E21.47123
G1 X86.301 Y38.328 E21.59498
G1 X87.477 Y39.504 E21.67276
G1 X88.652 Y38.328 E21.75055
G1 X88.726 Y37.814 E21.77484
G1 X88.726 Y37.226 E21.80234
G1 X88.652 Y36.712 E21.82663
G1 X88.358 Y36.418 E21.84608
G1 X88.285 Y35.903 E21.87040
G1 X88.285 Y34.139 E21.95290
G1 X88.358 Y33.624 E21.97722
G1 X88.652 Y33.330 E21.99667
G1 X88.726 Y32.816 E22.02096
G1 X88.726 Y28.700 E22.21346
G1 X88.799 Y28.185 E22.23779
G1 X92.474 Y24.511 E22.48086
G1 X97.178 Y24.511 E22.70086
G1 X99.383 Y25.834 E22.82113
G1 X99.824 Y25.981 E22.84287
G1 X100.118 Y26.275 E22.86232
G1 X100.559 Y26.422 E22.88406
G1 X104.601 Y28.847 E23.10456
G1 X107.247 Y31.493 E23.27958
G1 X107.541 Y31.640 E23.29493
G0 X107.541 Y31.640 F5400
G0 F3000 E22.69492
G0 F600 Z2.310
G0 X104.822 Y41.709 F5400
G0 F600 Z0.310
G0 F3000 E23.29493
G1 X104.969 Y42.003 E23.31027 F1200
G1 X106.439 Y43.473 E23.40750
G1 X106.659 Y43.840 E23.42757
G1 X106.659 Y46.486 E23.55132
G1 X105.630 Y47.515 E23.61938
G1 X105.851 Y47.882 E23.63940
G1 X107.467 Y49.499 E23.74636
G1 X109.231 Y47.735 E23.86303
G1 X109.305 Y47.515 E23.87388
G1 X108.276 Y46.486 E23.94194
G1 X108.276 Y44.134 E24.05195
G1 X108.349 Y43.620 E24.07627
G1 X109.819 Y42.150 E24.17350
G1 X109.966 Y41.856 E24.18885
G1 X109.525 Y40.533 E24.25407
G1 X109.305 Y40.166 E24.27413
G1 X109.305 Y39.872 E24.28788
G1 X109.158 Y39.725 E24.29761
G1 X109.158 Y39.431 E24.31136
G1 X109.011 Y39.284 E24.32108
G1 X109.011 Y38.990 E24.33483
G1 X108.790 Y38.622 E24.35486
G1 X108.349 Y37.300 E24.42008
G1 X108.129 Y36.932 E24.44014
G1 X108.129 Y36.638 E24.45389
G1 X107.982 Y36.491 E24.46362
G1 X107.982 Y36.197 E24.47737
G1 X107.835 Y36.050 E24.48709
G1 X107.835 Y35.756 E24.50084
G1 X107.614 Y35.389 E24.52087
G1 X107.467 Y34.948 E24.54261
G1 X107.320 Y34.801 E24.55233
G1 X107.173 Y35.242 E24.57407
G1 X106.953 Y35.609 E24.59410
G1 X106.953 Y35.903 E24.60785
G1 X106.806 Y36.197 E24.62322
G1 X106.659 Y36.491 E24.63859
G1 X106.659 Y36.785 E24.65235
G1 X106.439 Y37.153 E24.67241
G1 X105.998 Y38.476 E24.73763
G1 X105.777 Y38.843 E24.75766
G1 X105.777 Y39.137 E24.77141
G1 X105.630 Y39.284 E24.78113
G1 X105.630 Y39.578 E24.79488
G1 X105.483 Y39.725 E24.80460
G1 X105.483 Y40.019 E24.81835
G1 X105.263 Y40.386 E24.83842
G1 X104.822 Y41.709 E24.90364
G0 X104.822 Y41.709 F5400
G0 X104.381 Y41.709
G1 X104.528 Y42.003 E24.91899 F1200
G1 X105.998 Y43.473 E25.01622
G1 X106.218 Y43.840 E25.03628
G1 X106.218 Y46.486 E25.16004
G1 X105.189 Y47.515 E25.22810
G1 X105.410 Y47.882 E25.24812
G1 X107.467 Y49.940 E25.38424
G1 X109.525 Y47.882 E25.52036
G1 X109.746 Y47.515 E25.54039
G1 X108.717 Y46.486 E25.60845
G1 X108.717 Y44.134 E25.71845
G1 X108.790 Y43.620 E25.74277
G1 X110.260 Y42.150 E25.84000
G1 X110.407 Y41.856 E25.85535
G1 X109.966 Y40.533 E25.92058
G1 X109.746 Y40.166 E25.94064
G1 X109.746 Y39.872 E25.95439
G1 X109.599 Y39.725 E25.96411
G1 X109.599 Y39.431 E25.97786
G1 X109.452 Y39.284 E25.98759
G1 X109.452 Y38.990 E26.00134
G1 X109.231 Y38.622 E26.02136
G1 X108.790 Y37.300 E26.08659
G1 X108.570 Y36.932 E26.10665
G1 X108.570 Y36.638 E26.12040
G1 X108.423 Y36.491 E26.13012
G1 X108.423 Y36.197 E26.14387
G1 X108.276 Y36.050 E26.15360
G1 X108.276 Y35.756 E26.16735
G1 X108.055 Y35.389 E26.18737
G1 X107.614 Y34.066 E26.25260
G1 X107.394 Y33.698 E26.27266
G1 X107.247 Y33.845 E26.28236
G1 X106.953 Y34.580 E26.31939
G1 X106.659 Y35.462 E26.36287
G1 X106.512 Y35.609 E26.37259
G1 X106.512 Y35.903 E26.38634
G1 X106.365 Y36.050 E26.39607
G1 X106.365 Y36.344 E26.40982
G1 X106.218 Y36.491 E26.41954
G1 X106.218 Y36.785 E26.43329
G1 X105.998 Y37.153 E26.45335
G1 X105.557 Y38.476 E26.51858
G1 X105.336 Y38.843 E26.53860
G1 X105.336 Y39.137 E26.55235
G1 X105.189 Y39.284 E26.56208
G1 X105.189 Y39.578 E26.57583
G1 X105.042 Y39.725 E26.58555
G1 X105.042 Y40.019 E26.59930
G1 X104.822 Y40.386 E26.61936
G1 X104.381 Y41.709 E26.68459
G0 X104.381 Y41.709 F5400
G0 F3000 E26.08459
G0 X54.623 Y35.903 F5400
G0 F3000 E26.68459
G1 X54.476 Y35.756 E26.69431 F1200
G1 X54.476 Y35.462 E26.70806
G1 X54.329 Y35.315 E26.71778
G1 X54.329 Y35.021 E26.73153
G1 X54.109 Y34.654 E26.75156
G1 X53.668 Y33.331 E26.81678
G1 X53.447 Y32.963 E26.83685
G1 X53.447 Y32.375 E26.86435
G1 X56.681 Y29.141 E27.07825
G1 X60.724 Y26.716 E27.29875
G1 X61.165 Y26.569 E27.32050
G1 X61.459 Y26.275 E27.33994
G1 X61.900 Y26.128 E27.36168
G1 X63.737 Y25.025 E27.46189
G1 X64.252 Y24.952 E27.48621
G1 X68.661 Y24.952 E27.69246
G1 X71.895 Y28.185 E27.90637
G1 X71.969 Y28.700 E27.93069
G1 X71.969 Y39.872 E28.45320
G1 X72.336 Y40.092 E28.47323
G1 X73.659 Y38.769 E28.56073
G1 X76.305 Y38.769 E28.68448
G1 X77.481 Y39.945 E28.76227
G1 X78.657 Y38.769 E28.84005
G1 X81.303 Y38.769 E28.96380
G1 X82.479 Y39.945 E29.04159
G1 X83.655 Y38.769 E29.11937
G1 X86.301 Y38.769 E29.24312
G1 X87.477 Y39.945 E29.32091
G1 X88.946 Y38.475 E29.41814
G1 X89.167 Y38.108 E29.43816
G1 X89.167 Y36.932 E29.49316
G1 X88.726 Y36.197 E29.53325
G1 X88.726 Y33.845 E29.64325
G1 X89.167 Y33.110 E29.68334
G1 X89.167 Y28.406 E29.90335
G1 X89.387 Y28.038 E29.92341
G1 X92.474 Y24.952 E30.12759
G1 X97.178 Y24.952 E30.34760
G1 X99.383 Y26.275 E30.46786
G1 X99.824 Y26.422 E30.48960
G1 X100.118 Y26.716 E30.50905
G1 X100.559 Y26.863 E30.53079
G1 X104.601 Y29.288 E30.75130
G1 X107.247 Y31.934 E30.92631
G1 X107.541 Y32.081 E30.94166
G1 X110.187 Y29.435 E31.11667
G1 X115.699 Y26.128 E31.41735
G1 X116.140 Y25.981 E31.43909
G1 X116.434 Y25.687 E31.45854
G1 X116.875 Y25.540 E31.48028
G1 X117.610 Y25.099 E31.52037
G1 X122.314 Y25.099 E31.74037
G1 X125.548 Y28.332 E31.95428
G1 X125.621 Y28.847 E31.97860
G1 X125.621 Y32.963 E32.17111
G1 X125.842 Y33.330 E32.19113
G1 X126.136 Y33.624 E32.21058
G1 X126.209 Y34.139 E32.23490
G1 X126.209 Y35.903 E32.31740
G1 X126.136 Y36.418 E32.34173
G1 X125.842 Y36.712 E32.36117
G1 X125.621 Y37.079 E32.38120
G1 X125.621 Y37.667 E32.40870
G1 X125.695 Y38.181 E32.43299
G1 X127.458 Y39.945 E32.54967
G1 X128.634 Y38.769 E32.62745
G1 X131.280 Y38.769 E32.75120
G1 X132.456 Y39.945 E32.82898
G1 X133.632 Y38.769 E32.90677
G1 X136.278 Y38.769 E33.03052
G1 X137.454 Y39.945 E33.10830
G1 X138.630 Y38.769 E33.18608
G1 X141.276 Y38.769 E33.30983
G1 X142.599 Y40.092 E33.39734
G1 X142.819 Y40.019 E33.40819
G1 X142.819 Y28.847 E33.93070
G1 X142.893 Y28.332 E33.95503
G1 X146.127 Y25.099 E34.16893
G1 X150.830 Y25.099 E34.38894
G1 X151.271 Y25.246 E34.41068
G1 X154.946 Y27.450 E34.61112
G1 X155.387 Y27.597 E34.63286
G1 X155.681 Y27.891 E34.65231
G1 X156.122 Y28.038 E34.67405
G1 X157.960 Y29.141 E34.77429
G1 X161.340 Y32.522 E34.99791
G1 X161.340 Y33.110 E35.02541
G1 X161.120 Y33.478 E35.04547
G1 X160.679 Y34.801 E35.11070
G1 X160.459 Y35.168 E35.13072
G1 X160.459 Y35.462 E35.14448
G1 X160.312 Y35.609 E35.15420
G1 X160.312 Y35.903 E35.16795
G1 X160.165 Y36.050 E35.17767
G1 X160.165 Y36.344 E35.19143
G1 X159.944 Y36.712 E35.21149
G1 X159.503 Y38.035 E35.27671
G1 X159.283 Y38.402 E35.29674
G1 X159.283 Y38.696 E35.31049
G1 X159.136 Y38.843 E35.32021
G1 X159.136 Y39.137 E35.33397
G1 X158.989 Y39.284 E35.34369
G1 X158.989 Y39.578 E35.35744
G1 X158.768 Y39.945 E35.37750
G1 X158.327 Y41.268 E35.44273
G1 X158.107 Y41.636 E35.46275
G1 X158.107 Y41.930 E35.47651
G1 X157.960 Y42.077 E35.48623
G1 X157.960 Y42.371 E35.49998
G1 X157.813 Y42.518 E35.50971
G1 X157.813 Y42.811 E35.52346
G1 X157.592 Y43.179 E35.54352
G1 X157.151 Y44.502 E35.60874
G1 X156.931 Y44.869 E35.62877
G1 X156.931 Y45.163 E35.64252
G1 X156.784 Y45.310 E35.65225
G1 X156.784 Y45.604 E35.66600
G1 X156.637 Y45.751 E35.67572
G1 X156.637 Y46.045 E35.68947
G1 X156.416 Y46.413 E35.70953
G1 X155.975 Y47.736 E35.77476
G1 X155.755 Y48.103 E35.79479
G1 X155.755 Y48.397 E35.80854
G1 X155.608 Y48.544 E35.81826
G1 X155.608 Y48.838 E35.83201
G1 X155.461 Y48.985 E35.84174
G1 X155.461 Y49.279 E35.85549
G1 X155.240 Y49.647 E35.87555
G1 X154.799 Y50.970 E35.94077
G1 X154.579 Y51.337 E35.96080
G1 X154.579 Y51.631 E35.97455
G1 X154.432 Y51.778 E35.98428
G1 X154.432 Y52.072 E35.99803
G1 X154.285 Y52.219 E36.00775
G1 X154.285 Y52.513 E36.02150
G1 X154.064 Y52.881 E36.04157
G1 X153.623 Y54.204 E36.10679
G1 X153.403 Y54.571 E36.12682
G1 X153.403 Y54.865 E36.14057
G1 X153.256 Y55.012 E36.15029
G1 X153.256 Y55.306 E36.16404
G1 X153.109 Y55.453 E36.17377
G1 X153.109 Y55.747 E36.18752
G1 X152.962 Y55.894 E36.19724
G1 X152.962 Y56.188 E36.21100
G1 X152.741 Y56.556 E36.23106
G1 X152.300 Y57.879 E36.29628
G1 X152.080 Y58.246 E36.31631
G1 X152.080 Y58.540 E36.33006
G1 X151.933 Y58.687 E36.33978
G1 X151.933 Y58.981 E36.35354
G1 X151.786 Y59.128 E36.36326
G1 X151.786 Y59.422 E36.37701
G1 X151.565 Y59.789 E36.39707
G1 X151.124 Y61.112 E36.46230
G1 X150.904 Y61.480 E36.48232
G1 X150.904 Y61.774 E36.49608
G1 X150.757 Y61.921 E36.50580
G1 X150.757 Y62.214 E36.51955
G1 X150.610 Y62.361 E36.52928
G1 X150.610 Y62.655 E36.54303
G1 X150.389 Y63.023 E36.56309
G1 X149.948 Y64.346 E36.62831
G1 X149.728 Y64.713 E36.64834
G1 X149.728 Y65.007 E36.66209
G1 X149.581 Y65.154 E36.67182
G1 X149.581 Y65.448 E36.68557
G1 X146.347 Y68.682 E36.89947
G1 X145.980 Y68.903 E36.91953
G1 X127.164 Y68.903 E37.79955
G1 X122.461 Y68.903 E38.01956
G1 X122.093 Y68.682 E38.03962
G1 X119.006 Y65.595 E38.24380
G1 X119.006 Y65.301 E38.25755
G1 X118.786 Y64.934 E38.27758
G1 X118.198 Y63.170 E38.36454
G1 X117.977 Y62.802 E38.38460
G1 X117.977 Y62.508 E38.39835
G1 X117.830 Y62.361 E38.40808
G1 X117.830 Y62.067 E38.42183
G1 X117.683 Y61.921 E38.43155
G1 X117.683 Y61.627 E38.44531
G1 X117.463 Y61.259 E38.46533
G1 X117.316 Y60.818 E38.48707
G1 X117.096 Y60.598 E38.50166
G1 X116.508 Y61.186 E38.54055
G1 X116.140 Y61.406 E38.56061
G1 X113.788 Y61.406 E38.67061
G1 X113.420 Y61.186 E38.69067
G1 X112.538 Y60.304 E38.74901
G1 X112.245 Y60.451 E38.76436
G1 X111.363 Y61.333 E38.82270
G1 X110.848 Y61.406 E38.84702
G1 X109.084 Y61.406 E38.92952
G1 X108.570 Y61.333 E38.95384
G1 X107.688 Y60.451 E39.01218
G1 X107.394 Y60.304 E39.02753
G1 X106.512 Y61.186 E39.08587
G1 X106.145 Y61.406 E39.10593
G1 X103.793 Y61.406 E39.21593
G1 X103.425 Y61.186 E39.23599
G1 X102.543 Y60.304 E39.29433
G1 X102.250 Y60.451 E39.30968
G1 X101.368 Y61.333 E39.36802
G1 X100.853 Y61.406 E39.39234
G1 X99.089 Y61.406 E39.47484
G1 X98.574 Y61.333 E39.49917
G1 X97.692 Y60.451 E39.55750
G1 X97.472 Y60.671 E39.57209
G1 X97.325 Y61.112 E39.59383
G1 X97.105 Y61.480 E39.61385
G1 X97.105 Y61.774 E39.62761
G1 X96.958 Y61.921 E39.63733
G1 X96.958 Y62.214 E39.65108
G1 X96.811 Y62.361 E39.66081
G1 X96.811 Y62.655 E39.67456
G1 X96.590 Y63.023 E39.69462
G1 X96.002 Y64.787 E39.78158
G1 X95.782 Y65.154 E39.80161
G1 X95.782 Y65.448 E39.81536
G1 X92.548 Y68.682 E40.02927
G1 X92.033 Y68.756 E40.05359
G1 X73.218 Y68.756 E40.93361
G1 X69.102 Y68.756 E41.12611
G1 X68.588 Y68.682 E41.15043
G1 X67.265 Y67.359 E41.23794
G1 X65.207 Y65.301 E41.37406
G1 X65.207 Y65.007 E41.38781
G1 X65.060 Y64.860 E41.39753
G1 X65.060 Y64.566 E41.41129
G1 X64.840 Y64.199 E41.43131
G1 X64.399 Y62.876 E41.49654
G1 X64.178 Y62.508 E41.51660
G1 X64.178 Y62.214 E41.53035
G1 X64.031 Y62.067 E41.54007
G1 X64.031 Y61.774 E41.55383
G1 X63.884 Y61.627 E41.56355
G1 X63.884 Y61.333 E41.57730
G1 X63.664 Y60.965 E41.59733
G1 X63.223 Y59.642 E41.66255
G1 X63.002 Y59.275 E41.68261
G1 X63.002 Y58.981 E41.69637
G1 X62.855 Y58.834 E41.70609
G1 X62.855 Y58.540 E41.71984
G1 X62.708 Y58.393 E41.72957
G1 X62.708 Y58.099 E41.74332
G1 X62.488 Y57.732 E41.76335
G1 X62.047 Y56.409 E41.82857
G1 X61.826 Y56.041 E41.84863
G1 X61.826 Y55.747 E41.86238
G1 X61.679 Y55.600 E41.87211
G1 X61.679 Y55.306 E41.88586
G1 X61.532 Y55.159 E41.89558
G1 X61.532 Y54.865 E41.90933
G1 X61.385 Y54.718 E41.91906
G1 X61.385 Y54.424 E41.93281
G1 X61.165 Y54.057 E41.95284
G1 X60.724 Y52.734 E42.01806
G1 X60.503 Y52.366 E42.03812
G1 X60.503 Y52.072 E42.05187
G1 X60.356 Y51.925 E42.06160
G1 X60.356 Y51.631 E42.07535
G1 X60.209 Y51.484 E42.08507
G1 X60.209 Y51.190 E42.09883
G1 X59.989 Y50.823 E42.11885
G1 X59.548 Y49.500 E42.18408
G1 X59.327 Y49.132 E42.20414
G1 X59.327 Y48.838 E42.21789
G1 X59.180 Y48.691 E42.22761
G1 X59.180 Y48.397 E42.24137
G1 X59.033 Y48.250 E42.25109
G1 X59.033 Y47.956 E42.26484
G1 X58.813 Y47.589 E42.28487
G1 X58.372 Y46.266 E42.35009
G1 X58.151 Y45.898 E42.37015
G1 X58.151 Y45.604 E42.38391
G1 X58.004 Y45.457 E42.39363
G1 X58.004 Y45.163 E42.40738
G1 X57.857 Y45.016 E42.41711
G1 X57.857 Y44.722 E42.43086
G1 X57.637 Y44.355 E42.45088
G1 X57.196 Y43.032 E42.51611
G1 X56.975 Y42.664 E42.53617
G1 X56.975 Y42.371 E42.54992
G1 X56.828 Y42.224 E42.55965
G1 X56.828 Y41.930 E42.57340
G1 X56.681 Y41.783 E42.58312
G1 X56.681 Y41.489 E42.59687
G1 X56.461 Y41.121 E42.61690
G1 X56.020 Y39.798 E42.68212
G1 X55.799 Y39.431 E42.70219
G1 X55.799 Y39.137 E42.71594
G1 X55.652 Y38.990 E42.72566
G1 X55.652 Y38.696 E42.73941
G1 X55.505 Y38.549 E42.74914
G1 X55.505 Y38.255 E42.76289
G1 X55.285 Y37.888 E42.78292
G1 X54.844 Y36.565 E42.84814
G1 X54.623 Y36.197 E42.86820
G1 X54.623 Y35.903 E42.88195
G0 X54.623 Y35.903 F5400
G0 X54.917 Y35.462
G1 X54.770 Y35.315 E42.89168 F1200
G1 X54.770 Y35.021 E42.90543
G1 X54.550 Y34.654 E42.92546
G1 X54.109 Y33.331 E42.99068
G1 X53.888 Y32.963 E43.01074
G1 X53.888 Y32.375 E43.03824
G1 X56.828 Y29.435 E43.23270
G1 X57.931 Y28.773 E43.29285
G1 X58.372 Y28.626 E43.31459
G1 X58.666 Y28.332 E43.33404
G1 X59.107 Y28.185 E43.35578
G1 X62.782 Y25.981 E43.55622
G1 X63.223 Y25.834 E43.57796
G1 X63.517 Y25.540 E43.59741
G1 X63.958 Y25.393 E43.61915
G1 X68.661 Y25.393 E43.83915
G1 X71.307 Y28.038 E44.01417
G1 X71.528 Y28.406 E44.03423
G1 X71.528 Y39.872 E44.57049
G1 X72.116 Y40.460 E44.60938
G1 X72.336 Y40.533 E44.62023
G1 X73.659 Y39.210 E44.70774
G1 X76.305 Y39.210 E44.83149
G1 X77.481 Y40.386 E44.90927
G1 X78.657 Y39.210 E44.98706
G1 X81.303 Y39.210 E45.11081
G1 X82.479 Y40.386 E45.18859
G1 X83.655 Y39.210 E45.26637
G1 X86.301 Y39.210 E45.39012
G1 X87.477 Y40.386 E45.46791
G1 X88.652 Y39.210 E45.54569
G1 X89.167 Y39.137 E45.56998
G1 X89.240 Y38.622 E45.59430
G1 X89.534 Y38.328 E45.61375
G1 X89.608 Y37.814 E45.63804
G1 X89.608 Y37.226 E45.66554
G1 X89.534 Y36.712 E45.68983
G1 X89.240 Y36.418 E45.70928
G1 X89.167 Y35.903 E45.73360
G1 X89.167 Y34.139 E45.81610
G1 X89.240 Y33.624 E45.84043
G1 X89.534 Y33.330 E45.85987
G1 X89.608 Y32.816 E45.88417
G1 X89.608 Y28.700 E46.07667
G1 X89.681 Y28.185 E46.10099
G1 X92.474 Y25.393 E46.28573
G1 X97.178 Y25.393 E46.50573
G1 X99.383 Y26.716 E46.62600
G1 X99.824 Y26.863 E46.64774
G1 X100.118 Y27.157 E46.66719
G1 X100.559 Y27.303 E46.68893
G1 X104.601 Y29.729 E46.90943
G1 X107.247 Y32.375 E47.08444
G1 X107.247 Y32.669 E47.09819
G1 X107.100 Y32.816 E47.10792
G1 X107.100 Y33.110 E47.12167
G1 X106.953 Y33.257 E47.13139
G1 X106.953 Y33.551 E47.14514
G1 X106.733 Y33.919 E47.16521
G1 X106.292 Y35.242 E47.23043
G1 X106.071 Y35.609 E47.25046
G1 X106.071 Y35.903 E47.26421
G1 X105.924 Y36.050 E47.27393
G1 X105.924 Y36.344 E47.28768
G1 X105.777 Y36.491 E47.29741
G1 X105.777 Y36.785 E47.31116
G1 X105.557 Y37.153 E47.33122
G1 X105.116 Y38.476 E47.39644
G1 X104.895 Y38.843 E47.41647
G1 X104.895 Y39.137 E47.43022
G1 X104.748 Y39.284 E47.43995
G1 X104.748 Y39.578 E47.45370
G1 X104.601 Y39.725 E47.46342
G1 X104.601 Y40.019 E47.47718
G1 X104.381 Y40.386 E47.49724
G1 X103.940 Y41.709 E47.56246
G1 X104.087 Y42.003 E47.57781
G1 X105.557 Y43.473 E47.67504
G1 X105.777 Y43.840 E47.69510
G1 X105.777 Y46.486 E47.81885
G1 X104.748 Y47.515 E47.88692
G1 X104.969 Y47.882 E47.90694
G1 X105.557 Y48.470 E47.94583
G1 X105.777 Y48.838 E47.96590
G1 X105.777 Y49.132 E47.97965
G1 X106.292 Y49.205 E48.00394
G1 X107.467 Y50.381 E48.08172
G1 X108.643 Y49.205 E48.15950
G1 X109.158 Y49.132 E48.18379
G1 X109.231 Y48.617 E48.20812
G1 X110.113 Y47.735 E48.26646
G1 X110.187 Y47.515 E48.27731
G1 X109.158 Y46.486 E48.34537
G1 X109.158 Y44.134 E48.45537
G1 X109.231 Y43.620 E48.47969
G1 X110.701 Y42.150 E48.57692
G1 X110.848 Y41.856 E48.59227
G1 X110.407 Y40.533 E48.65750
G1 X110.187 Y40.166 E48.67756
G1 X110.187 Y39.872 E48.69131
G1 X110.040 Y39.725 E48.70103
G1 X110.040 Y39.431 E48.71479
G1 X109.893 Y39.284 E48.72451
G1 X109.893 Y38.990 E48.73826
G1 X109.672 Y38.622 E48.75829
G1 X109.231 Y37.300 E48.82351
G1 X109.011 Y36.932 E48.84357
G1 X109.011 Y36.638 E48.85733
G1 X108.864 Y36.491 E48.86705
G1 X108.864 Y36.197 E48.88080
G1 X108.717 Y36.050 E48.89052
G1 X108.717 Y35.756 E48.90428
G1 X108.496 Y35.389 E48.92430
G1 X108.055 Y34.066 E48.98953
G1 X107.835 Y33.698 E49.00959
G1 X107.835 Y33.404 E49.02334
G1 X107.688 Y33.257 E49.03306
G1 X107.688 Y32.963 E49.04682
G1 X107.541 Y32.816 E49.05654
G1 X107.541 Y32.522 E49.07029
G1 X110.187 Y29.876 E49.24531
G1 X115.699 Y26.569 E49.54599
G1 X116.140 Y26.422 E49.56773
G1 X116.434 Y26.128 E49.58718
G1 X116.875 Y25.981 E49.60892
G1 X117.610 Y25.540 E49.64900
G1 X122.314 Y25.540 E49.86901
G1 X124.960 Y28.185 E50.04402
G1 X125.180 Y28.553 E50.06409
G1 X125.180 Y32.669 E50.25659
G1 X125.254 Y33.183 E50.28088
G1 X125.548 Y33.477 E50.30033
G1 X125.768 Y33.845 E50.32039
G1 X125.768 Y36.197 E50.43039
G1 X125.548 Y36.565 E50.45045
G1 X125.254 Y36.859 E50.46990
G1 X125.180 Y37.373 E50.49419
G1 X125.180 Y37.961 E50.52169
G1 X125.401 Y38.328 E50.54172
G1 X125.695 Y38.622 E50.56117
G1 X125.768 Y39.137 E50.58549
G1 X126.283 Y39.210 E50.60978
G1 X127.458 Y40.386 E50.68756
G1 X128.634 Y39.210 E50.76535
G1 X131.280 Y39.210 E50.88910
G1 X132.456 Y40.386 E50.96688
G1 X133.632 Y39.210 E51.04467
G1 X136.278 Y39.210 E51.16842
G1 X137.454 Y40.386 E51.24621
G1 X138.630 Y39.210 E51.32399
G1 X141.276 Y39.210 E51.44774
G1 X142.599 Y40.533 E51.53525
G1 X142.966 Y40.313 E51.55528
G1 X143.260 Y40.019 E51.57472
G1 X143.260 Y28.847 E52.09724
G1 X143.334 Y28.332 E52.12156
G1 X146.127 Y25.540 E52.30629
G1 X150.830 Y25.540 E52.52630
G1 X151.271 Y25.687 E52.54804
G1 X154.946 Y27.891 E52.74848
G1 X155.387 Y28.038 E52.77022
G1 X155.681 Y28.332 E52.78967
G1 X156.122 Y28.479 E52.81141
G1 X157.960 Y29.582 E52.91165
G1 X160.900 Y32.522 E53.10610
G1 X160.900 Y33.110 E53.13360
G1 X160.679 Y33.478 E53.15367
G1 X160.238 Y34.801 E53.21889
G1 X160.018 Y35.168 E53.23892
G1 X160.018 Y35.462 E53.25267
G1 X159.871 Y35.609 E53.26239
G1 X159.871 Y35.903 E53.27614
G1 X159.724 Y36.050 E53.28587
G1 X159.724 Y36.344 E53.29962
G1 X159.503 Y36.712 E53.31968
G1 X159.062 Y38.035 E53.38491
G1 X158.842 Y38.402 E53.40493
G1 X158.842 Y38.696 E53.41868
G1 X158.695 Y38.843 E53.42841
G1 X158.695 Y39.137 E53.44216
G1 X158.548 Y39.284 E53.45188
G1 X158.548 Y39.578 E53.46564
G1 X158.327 Y39.945 E53.48570
G1 X157.886 Y41.268 E53.55092
G1 X157.666 Y41.636 E53.57095
G1 X157.666 Y41.930 E53.58470
G1 X157.519 Y42.077 E53.59442
G1 X157.519 Y42.371 E53.60818
G1 X157.372 Y42.518 E53.61790
G1 X157.372 Y42.811 E53.63165
G1 X157.151 Y43.179 E53.65171
G1 X156.710 Y44.502 E53.71694
G1 X156.490 Y44.869 E53.73696
G1 X156.490 Y45.163 E53.75072
G1 X156.343 Y45.310 E53.76044
G1 X156.343 Y45.604 E53.77419
G1 X156.196 Y45.751 E53.78392
G1 X156.196 Y46.045 E53.79767
G1 X155.975 Y46.413 E53.81773
G1 X155.534 Y47.736 E53.88295
G1 X155.314 Y48.103 E53.90298
G1 X155.314 Y48.397 E53.91673
G1 X155.167 Y48.544 E53.92646
G1 X155.167 Y48.838 E53.94021
G1 X155.020 Y48.985 E53.94993
G1 X155.020 Y49.279 E53.96368
G1 X154.799 Y49.647 E53.98374
G1 X154.358 Y50.970 E54.04897
G1 X154.138 Y51.337 E54.06900
G1 X154.138 Y51.631 E54.08275
G1 X153.991 Y51.778 E54.09247
G1 X153.991 Y52.072 E54.10622
G1 X153.844 Y52.219 E54.11595
G1 X153.844 Y52.513 E54.12970
G1 X153.623 Y52.881 E54.14976
G1 X153.182 Y54.204 E54.21498
G1 X152.962 Y54.571 E54.23501
G1 X152.962 Y54.865 E54.24876
G1 X152.815 Y55.012 E54.25849
G1 X152.815 Y55.306 E54.27224
G1 X152.668 Y55.453 E54.28196
G1 X152.668 Y55.747 E54.29571
G1 X152.521 Y55.894 E54.30544
G1 X152.521 Y56.188 E54.31919
G1 X152.300 Y56.556 E54.33925
G1 X151.859 Y57.879 E54.40447
G1 X151.639 Y58.246 E54.42450
G1 X151.639 Y58.540 E54.43825
G1 X151.492 Y58.687 E54.44798
G1 X151.492 Y58.981 E54.46173
G1 X151.345 Y59.128 E54.47145
G1 X151.345 Y59.422 E54.48521
G1 X151.124 Y59.789 E54.50527
G1 X150.683 Y61.112 E54.57049
G1 X150.463 Y61.480 E54.59052
G1 X150.463 Y61.774 E54.60427
G1 X150.316 Y61.921 E54.61399
G1 X150.316 Y62.214 E54.62775
G1 X150.169 Y62.361 E54.63747
G1 X150.169 Y62.655 E54.65122
G1 X149.948 Y63.023 E54.67128
G1 X149.507 Y64.346 E54.73651
G1 X149.287 Y64.713 E54.75653
G1 X149.287 Y65.007 E54.77029
G1 X149.140 Y65.154 E54.78001
G1 X149.140 Y65.448 E54.79376
G1 X146.200 Y68.388 E54.98822
G1 X145.686 Y68.462 E55.01254
G1 X126.870 Y68.462 E55.89256
G1 X122.755 Y68.462 E56.08506
G1 X122.240 Y68.388 E56.10939
G1 X119.447 Y65.595 E56.29412
G1 X119.447 Y65.301 E56.30787
G1 X119.227 Y64.934 E56.32790
G1 X118.639 Y63.170 E56.41486
G1 X118.418 Y62.802 E56.43492
G1 X118.418 Y62.508 E56.44868
G1 X118.271 Y62.361 E56.45840
G1 X118.271 Y62.067 E56.47215
G1 X118.124 Y61.921 E56.48188
G1 X118.124 Y61.627 E56.49563
G1 X117.904 Y61.259 E56.51565
G1 X117.463 Y59.936 E56.58088
G1 X117.096 Y60.157 E56.60091
G1 X116.508 Y60.745 E56.63980
G1 X116.140 Y60.965 E56.65986
G1 X113.788 Y60.965 E56.76986
G1 X113.420 Y60.745 E56.78992
G1 X112.538 Y59.863 E56.84826
G1 X112.245 Y60.010 E56.86361
G1 X111.363 Y60.892 E56.92195
G1 X110.848 Y60.965 E56.94627
G1 X109.084 Y60.965 E57.02877
G1 X108.570 Y60.892 E57.05309
G1 X107.688 Y60.010 E57.11143
G1 X107.394 Y59.863 E57.12678
G1 X106.512 Y60.745 E57.18512
G1 X106.145 Y60.965 E57.20518
G1 X103.793 Y60.965 E57.31518
G1 X103.425 Y60.745 E57.33524
G1 X102.543 Y59.863 E57.39358
G1 X102.250 Y60.010 E57.40893
G1 X101.368 Y60.892 E57.46727
G1 X100.853 Y60.965 E57.49159
G1 X99.089 Y60.965 E57.57409
G1 X98.574 Y60.892 E57.59841
G1 X97.692 Y60.010 E57.65675
G1 X97.325 Y59.789 E57.67678
G1 X96.884 Y61.112 E57.74200
G1 X96.664 Y61.480 E57.76203
G1 X96.664 Y61.774 E57.77578
G1 X96.517 Y61.921 E57.78551
G1 X96.517 Y62.214 E57.79926
G1 X96.370 Y62.361 E57.80898
G1 X96.370 Y62.655 E57.82273
G1 X96.149 Y63.023 E57.84280
G1 X95.561 Y64.787 E57.92976
G1 X95.341 Y65.154 E57.94979
G1 X95.341 Y65.448 E57.96354
G1 X92.695 Y68.094 E58.13855
G1 X92.327 Y68.315 E58.15861
G1 X73.512 Y68.315 E59.03863
G1 X68.808 Y68.315 E59.25863
G1 X68.441 Y68.094 E59.27869
G1 X67.265 Y66.918 E59.35647
G1 X65.648 Y65.301 E59.46343
G1 X65.648 Y65.007 E59.47718
G1 X65.501 Y64.860 E59.48690
G1 X65.501 Y64.566 E59.50065
G1 X65.281 Y64.199 E59.52068
G1 X64.840 Y62.876 E59.58591
G1 X64.619 Y62.508 E59.60597
G1 X64.619 Y62.214 E59.61972
G1 X64.472 Y62.067 E59.62944
G1 X64.472 Y61.774 E59.64319
G1 X64.325 Y61.627 E59.65292
G1 X64.325 Y61.333 E59.66667
G1 X64.105 Y60.965 E59.68670
G1 X63.664 Y59.642 E59.75192
G1 X63.443 Y59.275 E59.77198
G1 X63.443 Y58.981 E59.78573
G1 X63.296 Y58.834 E59.79546
G1 X63.296 Y58.540 E59.80921
G1 X63.149 Y58.393 E59.81893
G1 X63.149 Y58.099 E59.83269
G1 X62.929 Y57.732 E59.85271
G1 X62.488 Y56.409 E59.91794
G1 X62.267 Y56.041 E59.93800
G1 X62.267 Y55.747 E59.95175
G1 X62.120 Y55.600 E59.96147
G1 X62.120 Y55.306 E59.97523
G1 X61.973 Y55.159 E59.98495
G1 X61.973 Y54.865 E59.99870
G1 X61.826 Y54.718 E60.00843
G1 X61.826 Y54.424 E60.02218
G1 X61.606 Y54.057 E60.04220
G1 X61.165 Y52.734 E60.10743
G1 X60.944 Y52.366 E60.12749
G1 X60.944 Y52.072 E60.14124
G1 X60.797 Y51.925 E60.15097
G1 X60.797 Y51.631 E60.16472
G1 X60.650 Y51.484 E60.17444
G1 X60.650 Y51.190 E60.18819
G1 X60.430 Y50.823 E60.20822
G1 X59.989 Y49.500 E60.27344
G1 X59.768 Y49.132 E60.29351
G1 X59.768 Y48.838 E60.30726
G1 X59.621 Y48.691 E60.31698
G1 X59.621 Y48.397 E60.33073
G1 X59.474 Y48.250 E60.34046
G1 X59.474 Y47.956 E60.35421
G1 X59.254 Y47.589 E60.37424
G1 X58.813 Y46.266 E60.43946
G1 X58.592 Y45.898 E60.45952
G1 X58.592 Y45.604 E60.47327
G1 X58.445 Y45.457 E60.48300
G1 X58.445 Y45.163 E60.49675
G1 X58.298 Y45.016 E60.50647
G1 X58.298 Y44.722 E60.52022
G1 X58.078 Y44.355 E60.54025
G1 X57.637 Y43.032 E60.60548
G1 X57.416 Y42.664 E60.62554
G1 X57.416 Y42.371 E60.63929
G1 X57.269 Y42.224 E60.64901
G1 X57.269 Y41.930 E60.66276
G1 X57.122 Y41.783 E60.67249
G1 X57.122 Y41.489 E60.68624
G1 X56.902 Y41.121 E60.70627
G1 X56.461 Y39.798 E60.77149
G1 X56.240 Y39.431 E60.79155
G1 X56.240 Y39.137 E60.80530
G1 X56.093 Y38.990 E60.81503
G1 X56.093 Y38.696 E60.82878
G1 X55.946 Y38.549 E60.83850
G1 X55.946 Y38.255 E60.85226
G1 X55.726 Y37.888 E60.87228
G1 X55.285 Y36.565 E60.93751
G1 X55.064 Y36.197 E60.95757
G1 X55.064 Y35.903 E60.97132
G1 X54.917 Y35.756 E60.98104
G1 X54.917 Y35.462 E60.99480
G0 X54.917 Y35.462 F5400
G0 X55.211 Y35.021
G1 X54.991 Y34.654 E61.01482 F1200
G1 X54.550 Y33.331 E61.08005
G1 X54.329 Y32.963 E61.10011
G1 X54.329 Y32.375 E61.12761
G1 X56.681 Y30.023 E61.28318
G1 X60.724 Y27.597 E61.50368
G1 X61.165 Y27.450 E61.52542
G1 X61.459 Y27.157 E61.54487
G1 X61.900 Y27.010 E61.56661
G1 X63.737 Y25.907 E61.66681
G1 X64.252 Y25.834 E61.69113
G1 X68.661 Y25.834 E61.89739
G1 X71.013 Y28.185 E62.05295
G1 X71.087 Y28.700 E62.07728
G1 X71.087 Y38.108 E62.51729
G1 X71.087 Y39.872 E62.59979
G1 X71.969 Y40.754 E62.65813
G1 X72.189 Y41.121 E62.67815
G1 X73.659 Y39.651 E62.77538
G1 X76.305 Y39.651 E62.89913
G1 X77.481 Y40.827 E62.97692
G1 X78.657 Y39.651 E63.05470
G1 X81.303 Y39.651 E63.17845
G1 X82.479 Y40.827 E63.25623
G1 X83.655 Y39.651 E63.33401
G1 X86.301 Y39.651 E63.45777
G1 X87.477 Y40.827 E63.53555
G1 X88.652 Y39.651 E63.61333
G1 X89.534 Y39.651 E63.65458
G1 X89.681 Y38.622 E63.70320
G1 X89.975 Y38.328 E63.72264
G1 X90.049 Y37.814 E63.74694
G1 X90.049 Y37.226 E63.77444
G1 X89.975 Y36.712 E63.79873
G1 X89.681 Y36.418 E63.81817
G1 X89.608 Y35.903 E63.84250
G1 X89.608 Y34.139 E63.92500
G1 X89.681 Y33.624 E63.94932
G1 X89.975 Y33.330 E63.96877
G1 X90.049 Y32.816 E63.99306
G1 X90.049 Y28.700 E64.18556
G1 X90.122 Y28.185 E64.20989
G1 X92.474 Y25.834 E64.36545
G1 X97.178 Y25.834 E64.58545
G1 X99.383 Y27.157 E64.70571
G1 X99.824 Y27.303 E64.72746
G1 X100.118 Y27.597 E64.74690
G1 X100.559 Y27.744 E64.76865
G1 X104.601 Y30.170 E64.98915
G1 X106.806 Y32.375 E65.13500
G1 X106.806 Y32.669 E65.14875
G1 X106.659 Y32.816 E65.15847
G1 X106.659 Y33.110 E65.17221
G1 X106.512 Y33.257 E65.18193
G1 X106.512 Y33.551 E65.19568
G1 X106.292 Y33.919 E65.21575
G1 X105.851 Y35.242 E65.28097
G1 X105.630 Y35.609 E65.30100
G1 X105.630 Y35.903 E65.31475
G1 X105.483 Y36.050 E65.32447
G1 X105.483 Y36.344 E65.33821
G1 X105.336 Y36.491 E65.34793
G1 X105.336 Y36.785 E65.36168
G1 X105.116 Y37.153 E65.38175
G1 X104.675 Y38.476 E65.44697
G1 X104.454 Y38.843 E65.46700
G1 X104.454 Y39.137 E65.48075
G1 X104.307 Y39.284 E65.49047
G1 X104.307 Y39.578 E65.50421
G1 X104.160 Y39.725 E65.51393
G1 X104.160 Y40.019 E65.52768
G1 X103.940 Y40.386 E65.54775
G1 X103.499 Y41.709 E65.61297
G1 X103.646 Y42.003 E65.62832
G1 X105.116 Y43.473 E65.72555
G1 X105.336 Y43.840 E65.74562
G1 X105.336 Y46.486 E65.86936
G1 X104.307 Y47.515 E65.93743
G1 X104.528 Y47.882 E65.95745
G1 X105.116 Y48.470 E65.99635
G1 X105.336 Y48.838 E66.01641
G1 X105.336 Y49.426 E66.04392
G1 X105.410 Y49.646 E66.05477
G1 X106.292 Y49.646 E66.09603
G1 X107.467 Y50.822 E66.17381
G1 X108.643 Y49.646 E66.25159
G1 X109.525 Y49.646 E66.29284
G1 X109.672 Y48.617 E66.34146
G1 X110.554 Y47.735 E66.39979
G1 X110.628 Y47.515 E66.41065
G1 X109.599 Y46.486 E66.47871
G1 X109.599 Y44.134 E66.58871
G1 X109.672 Y43.620 E66.61303
G1 X111.142 Y42.150 E66.71026
G1 X111.289 Y41.856 E66.72561
G1 X110.848 Y40.533 E66.79084
G1 X110.628 Y40.166 E66.81090
G1 X110.628 Y39.872 E66.82465
G1 X110.481 Y39.725 E66.83437
G1 X110.481 Y39.431 E66.84812
G1 X110.334 Y39.284 E66.85784
G1 X110.334 Y38.990 E66.87158
G1 X110.113 Y38.622 E66.89161
G1 X109.672 Y37.300 E66.95684
G1 X109.452 Y36.932 E66.97690
G1 X109.452 Y36.638 E66.99065
G1 X109.305 Y36.491 E67.00037
G1 X109.305 Y36.197 E67.01412
G1 X109.158 Y36.050 E67.02384
G1 X109.158 Y35.756 E67.03758
G1 X108.937 Y35.389 E67.05761
G1 X108.496 Y34.066 E67.12284
G1 X108.276 Y33.698 E67.14290
G1 X108.276 Y33.404 E67.15665
G1 X108.129 Y33.257 E67.16637
G1 X108.129 Y32.963 E67.18012
G1 X107.982 Y32.816 E67.18984
G1 X107.982 Y32.522 E67.20359
G1 X110.334 Y30.170 E67.35915
G1 X112.171 Y29.067 E67.45939
G1 X112.612 Y28.920 E67.48114
G1 X112.906 Y28.626 E67.50058
G1 X113.347 Y28.479 E67.52233
G1 X113.641 Y28.185 E67.54177
G1 X114.082 Y28.038 E67.56352
G1 X117.389 Y26.054 E67.74390
G1 X117.904 Y25.981 E67.76822
G1 X122.314 Y25.981 E67.97447
G1 X124.666 Y28.332 E68.13004
G1 X124.739 Y28.847 E68.15436
G1 X124.739 Y32.963 E68.34687
G1 X124.960 Y33.330 E68.36689
G1 X125.254 Y33.624 E68.38634
G1 X125.327 Y34.139 E68.41066
G1 X125.327 Y35.903 E68.49317
G1 X125.254 Y36.418 E68.51749
G1 X124.960 Y36.712 E68.53694
G1 X124.739 Y37.079 E68.55696
G1 X124.739 Y37.667 E68.58447
G1 X124.813 Y38.181 E68.60876
G1 X125.107 Y38.475 E68.62821
G1 X125.327 Y38.843 E68.64827
G1 X125.327 Y39.431 E68.67578
G1 X125.401 Y39.651 E68.68663
G1 X126.283 Y39.651 E68.72788
G1 X127.458 Y40.827 E68.80567
G1 X128.634 Y39.651 E68.88345
G1 X131.280 Y39.651 E69.00720
G1 X132.456 Y40.827 E69.08498
G1 X133.632 Y39.651 E69.16276
G1 X136.278 Y39.651 E69.28651
G1 X137.454 Y40.827 E69.36429
G1 X138.630 Y39.651 E69.44207
G1 X141.276 Y39.651 E69.56582
G1 X142.599 Y40.974 E69.65333
G1 X142.966 Y40.754 E69.67336
G1 X143.701 Y40.019 E69.72197
G1 X143.701 Y30.611 E70.16198
G1 X143.701 Y28.847 E70.24449
G1 X143.775 Y28.332 E70.26881
G1 X146.127 Y25.981 E70.42437
G1 X150.830 Y25.981 E70.64437
G1 X151.271 Y26.128 E70.66612
G1 X154.946 Y28.332 E70.86656
G1 X155.387 Y28.479 E70.88831
G1 X155.681 Y28.773 E70.90776
G1 X156.122 Y28.920 E70.92950
G1 X157.960 Y30.023 E71.02974
G1 X160.459 Y32.522 E71.19503
G1 X160.459 Y33.110 E71.22254
G1 X160.238 Y33.478 E71.24260
G1 X159.797 Y34.801 E71.30783
G1 X159.577 Y35.168 E71.32785
G1 X159.577 Y35.462 E71.34160
G1 X159.430 Y35.609 E71.35132
G1 X159.430 Y35.903 E71.36507
G1 X159.283 Y36.050 E71.37479
G1 X159.283 Y36.344 E71.38854
G1 X159.062 Y36.712 E71.40860
G1 X158.621 Y38.035 E71.47383
G1 X158.401 Y38.402 E71.49385
G1 X158.401 Y38.696 E71.50760
G1 X158.254 Y38.843 E71.51732
G1 X158.254 Y39.137 E71.53107
G1 X158.107 Y39.284 E71.54079
G1 X158.107 Y39.578 E71.55454
G1 X157.886 Y39.945 E71.57460
G1 X157.445 Y41.268 E71.63983
G1 X157.225 Y41.636 E71.65985
G1 X157.225 Y41.930 E71.67360
G1 X157.078 Y42.077 E71.68332
G1 X157.078 Y42.371 E71.69707
G1 X156.931 Y42.518 E71.70679
G1 X156.931 Y42.811 E71.72054
G1 X156.710 Y43.179 E71.74060
G1 X156.269 Y44.502 E71.80583
G1 X156.049 Y44.869 E71.82585
G1 X156.049 Y45.163 E71.83960
G1 X155.902 Y45.310 E71.84932
G1 X155.902 Y45.604 E71.86307
G1 X155.755 Y45.751 E71.87279
G1 X155.755 Y46.045 E71.88654
G1 X155.534 Y46.413 E71.90660
G1 X155.093 Y47.736 E71.97183
G1 X154.873 Y48.103 E71.99185
G1 X154.873 Y48.397 E72.00560
G1 X154.726 Y48.544 E72.01532
G1 X154.726 Y48.838 E72.02907
G1 X154.579 Y48.985 E72.03879
G1 X154.579 Y49.279 E72.05254
G1 X154.358 Y49.647 E72.07260
G1 X153.917 Y50.970 E72.13783
G1 X153.697 Y51.337 E72.15785
G1 X153.697 Y51.631 E72.17160
G1 X153.550 Y51.778 E72.18132
G1 X153.550 Y52.072 E72.19507
G1 X153.403 Y52.219 E72.20479
G1 X153.403 Y52.513 E72.21854
G1 X153.182 Y52.881 E72.23860
G1 X152.741 Y54.204 E72.30383
G1 X152.521 Y54.571 E72.32386
G1 X152.521 Y54.865 E72.33760
G1 X152.374 Y55.012 E72.34732
G1 X152.374 Y55.306 E72.36107
G1 X152.227 Y55.453 E72.37079
G1 X152.227 Y55.747 E72.38454
G1 X152.080 Y55.894 E72.39426
G1 X152.080 Y56.188 E72.40801
G1 X151.859 Y56.556 E72.42807
G1 X151.418 Y57.879 E72.49330
G1 X151.198 Y58.246 E72.51332
G1 X151.198 Y58.540 E72.52707
G1 X151.051 Y58.687 E72.53679
G1 X151.051 Y58.981 E72.55054
G1 X150.904 Y59.128 E72.56026
G1 X150.904 Y59.422 E72.57401
G1 X150.683 Y59.789 E72.59407
G1 X150.242 Y61.112 E72.65930
G1 X150.022 Y61.480 E72.67932
G1 X150.022 Y61.774 E72.69307
G1 X149.875 Y61.921 E72.70279
G1 X149.875 Y62.214 E72.71654
G1 X149.728 Y62.361 E72.72626
G1 X149.728 Y62.655 E72.74001
G1 X149.507 Y63.023 E72.76007
G1 X149.066 Y64.346 E72.82530
G1 X148.846 Y64.713 E72.84532
G1 X148.846 Y65.007 E72.85907
G1 X148.699 Y65.154 E72.86879
G1 X148.699 Y65.448 E72.88254
G1 X146.347 Y67.800 E73.03810
G1 X145.980 Y68.021 E73.05817
G1 X136.572 Y68.021 E73.49818
G1 X127.164 Y68.021 E73.93819
G1 X122.461 Y68.021 E74.15819
G1 X122.093 Y67.800 E74.17826
G1 X119.888 Y65.595 E74.32410
G1 X119.888 Y65.301 E74.33785
G1 X119.668 Y64.934 E74.35787
G1 X119.080 Y63.170 E74.44484
G1 X118.859 Y62.802 E74.46491
G1 X118.859 Y62.508 E74.47866
G1 X118.712 Y62.361 E74.48838
G1 X118.712 Y62.067 E74.50212
G1 X118.565 Y61.921 E74.51184
G1 X118.565 Y61.627 E74.52559
G1 X118.345 Y61.259 E74.54562
G1 X117.757 Y59.495 E74.63259
G1 X117.537 Y59.275 E74.64717
G1 X116.361 Y60.451 E74.72496
G1 X115.846 Y60.524 E74.74928
G1 X114.082 Y60.524 E74.83178
G1 X113.567 Y60.451 E74.85610
G1 X112.685 Y59.569 E74.91444
G1 X112.392 Y59.422 E74.92979
G1 X111.510 Y60.304 E74.98812
G1 X111.142 Y60.524 E75.00819
G1 X108.790 Y60.524 E75.11819
G1 X108.423 Y60.304 E75.13825
G1 X107.541 Y59.422 E75.19659
G1 X107.247 Y59.569 E75.21194
G1 X106.365 Y60.451 E75.27027
G1 X105.851 Y60.524 E75.29460
G1 X104.087 Y60.524 E75.37710
G1 X103.572 Y60.451 E75.40142
G1 X102.690 Y59.569 E75.45976
G1 X102.397 Y59.422 E75.47511
G1 X101.515 Y60.304 E75.53344
G1 X101.147 Y60.524 E75.55351
G1 X98.795 Y60.524 E75.66351
G1 X98.427 Y60.304 E75.68357
G1 X97.251 Y59.128 E75.76136
G1 X97.031 Y59.348 E75.77594
G1 X96.443 Y61.112 E75.86291
G1 X96.223 Y61.480 E75.88294
G1 X96.223 Y61.774 E75.89669
G1 X96.076 Y61.921 E75.90641
G1 X96.076 Y62.214 E75.92015
G1 X95.929 Y62.361 E75.92987
G1 X95.929 Y62.655 E75.94362
G1 X95.708 Y63.023 E75.96369
G1 X95.120 Y64.787 E76.05065
G1 X94.900 Y65.154 E76.07068
G1 X94.900 Y65.448 E76.08443
G1 X92.548 Y67.800 E76.23999
G1 X92.033 Y67.874 E76.26432
G1 X82.626 Y67.874 E76.70433
G1 X73.218 Y67.874 E77.14434
G1 X68.661 Y67.874 E77.35746
G1 X68.441 Y67.653 E77.37207
G1 X66.089 Y65.301 E77.52763
G1 X66.089 Y65.007 E77.54138
G1 X65.942 Y64.860 E77.55110
G1 X65.942 Y64.566 E77.56484
G1 X65.722 Y64.199 E77.58487
G1 X65.281 Y62.876 E77.65010
G1 X65.060 Y62.508 E77.67016
G1 X65.060 Y62.214 E77.68391
G1 X64.913 Y62.067 E77.69363
G1 X64.913 Y61.774 E77.70738
G1 X64.766 Y61.627 E77.71710
G1 X64.766 Y61.333 E77.73085
G1 X64.546 Y60.965 E77.75087
G1 X64.105 Y59.642 E77.81610
G1 X63.884 Y59.275 E77.83616
G1 X63.884 Y58.981 E77.84991
G1 X63.737 Y58.834 E77.85963
G1 X63.737 Y58.540 E77.87338
G1 X63.590 Y58.393 E77.88310
G1 X63.590 Y58.099 E77.89685
G1 X63.370 Y57.732 E77.91687
G1 X62.929 Y56.409 E77.98210
G1 X62.708 Y56.041 E78.00216
G1 X62.708 Y55.747 E78.01591
G1 X62.561 Y55.600 E78.02563
G1 X62.561 Y55.306 E78.03938
G1 X62.414 Y55.159 E78.04910
G1 X62.414 Y54.865 E78.06285
G1 X62.267 Y54.718 E78.07257
G1 X62.267 Y54.424 E78.08631
G1 X62.047 Y54.057 E78.10634
G1 X61.606 Y52.734 E78.17156
G1 X61.385 Y52.366 E78.19163
G1 X61.385 Y52.072 E78.20538
G1 X61.238 Y51.925 E78.21510
G1 X61.238 Y51.631 E78.22885
G1 X61.091 Y51.484 E78.23857
G1 X61.091 Y51.190 E78.25231
G1 X60.871 Y50.823 E78.27234
G1 X60.430 Y49.500 E78.33757
G1 X60.209 Y49.132 E78.35763
G1 X60.209 Y48.838 E78.37138
G1 X60.062 Y48.691 E78.38110
G1 X60.062 Y48.397 E78.39485
G1 X59.915 Y48.250 E78.40457
G1 X59.915 Y47.956 E78.41831
G1 X59.695 Y47.589 E78.43834
G1 X59.254 Y46.266 E78.50357
G1 X59.033 Y45.898 E78.52363
G1 X59.033 Y45.604 E78.53738
G1 X58.886 Y45.457 E78.54710
G1 X58.886 Y45.163 E78.56085
G1 X58.739 Y45.016 E78.57057
G1 X58.739 Y44.722 E78.58431
G1 X58.519 Y44.355 E78.60434
G1 X58.078 Y43.032 E78.66957
G1 X57.857 Y42.664 E78.68963
G1 X57.857 Y42.371 E78.70338
G1 X57.710 Y42.224 E78.71310
G1 X57.710 Y41.930 E78.72685
G1 X57.563 Y41.783 E78.73657
G1 X57.563 Y41.489 E78.75032
G1 X57.343 Y41.121 E78.77034
G1 X56.902 Y39.798 E78.83557
G1 X56.681 Y39.431 E78.85563
G1 X56.681 Y39.137 E78.86938
G1 X56.534 Y38.990 E78.87910
G1 X56.534 Y38.696 E78.89285
G1 X56.387 Y38.549 E78.90257
G1 X56.387 Y38.255 E78.91632
G1 X56.167 Y37.888 E78.93634
G1 X55.726 Y36.565 E79.00157
G1 X55.505 Y36.197 E79.02163
G1 X55.505 Y35.903 E79.03538
G1 X55.358 Y35.756 E79.04510
G1 X55.358 Y35.462 E79.05885
G1 X55.211 Y35.315 E79.06857
G1 X55.211 Y35.021 E79.08232
G0 X55.211 Y35.021 F5400
G0 X55.432 Y34.654
G1 X54.991 Y33.331 E79.14754 F1200
G1 X54.770 Y32.963 E79.16761
G1 X54.770 Y32.375 E79.19511
G1 X56.828 Y30.317 E79.33123
G1 X57.931 Y29.655 E79.39138
G1 X58.372 Y29.508 E79.41313
G1 X58.666 Y29.214 E79.43257
G1 X59.107 Y29.067 E79.45432
G1 X62.782 Y26.863 E79.65476
G1 X63.223 Y26.716 E79.67650
G1 X63.517 Y26.422 E79.69595
G1 X63.958 Y26.275 E79.71769
G1 X68.661 Y26.275 E79.93769
G1 X70.425 Y28.038 E80.05437
G1 X70.646 Y28.406 E80.07443
G1 X70.646 Y37.814 E80.51444
G1 X70.646 Y39.872 E80.61070
G1 X71.528 Y40.754 E80.66903
G1 X71.748 Y41.121 E80.68906
G1 X72.189 Y41.562 E80.71823
G1 X73.659 Y40.092 E80.81546
G1 X76.305 Y40.092 E80.93921
G1 X77.481 Y41.268 E81.01699
G1 X78.657 Y40.092 E81.09477
G1 X81.303 Y40.092 E81.21853
G1 X82.479 Y41.268 E81.29631
G1 X83.655 Y40.092 E81.37409
G1 X86.301 Y40.092 E81.49785
G1 X87.477 Y41.268 E81.57563
G1 X88.652 Y40.092 E81.65341
G1 X89.828 Y40.092 E81.70841
G1 X90.049 Y40.019 E81.71927
G1 X90.049 Y38.843 E81.77427
G1 X90.490 Y38.108 E81.81436
G1 X90.490 Y36.932 E81.86936
G1 X90.049 Y36.197 E81.90946
G1 X90.049 Y33.845 E82.01946
G1 X90.490 Y33.110 E82.05955
G1 X90.490 Y28.406 E82.27955
G1 X90.710 Y28.038 E82.29962
G1 X92.474 Y26.275 E82.41629
G1 X97.178 Y26.275 E82.63629
G1 X99.383 Y27.597 E82.75656
G1 X99.824 Y27.744 E82.77830
G1 X100.118 Y28.038 E82.79775
G1 X100.559 Y28.185 E82.81949
G1 X104.601 Y30.611 E83.04000
G1 X106.365 Y32.375 E83.15667
G1 X106.365 Y32.669 E83.17042
G1 X106.218 Y32.816 E83.18014
G1 X106.218 Y33.110 E83.19389
G1 X106.071 Y33.257 E83.20361
G1 X106.071 Y33.551 E83.21736
G1 X105.851 Y33.919 E83.23742
G1 X105.410 Y35.242 E83.30265
G1 X105.189 Y35.609 E83.32267
G1 X105.189 Y35.903 E83.33642
G1 X105.042 Y36.050 E83.34614
G1 X105.042 Y36.344 E83.35989
G1 X104.895 Y36.491 E83.36961
G1 X104.895 Y36.785 E83.38336
G1 X104.675 Y37.153 E83.40342
G1 X104.234 Y38.476 E83.46865
G1 X104.013 Y38.843 E83.48867
G1 X104.013 Y39.137 E83.50242
G1 X103.866 Y39.284 E83.51214
G1 X103.866 Y39.578 E83.52589
G1 X103.719 Y39.725 E83.53561
G1 X103.719 Y40.019 E83.54936
G1 X103.499 Y40.386 E83.56942
G1 X103.058 Y41.709 E83.63465
G1 X103.205 Y42.003 E83.65000
G1 X104.675 Y43.473 E83.74723
G1 X104.895 Y43.840 E83.76729
G1 X104.895 Y46.486 E83.89104
G1 X103.866 Y47.515 E83.95910
G1 X104.087 Y47.882 E83.97913
G1 X104.675 Y48.470 E84.01802
G1 X104.895 Y48.838 E84.03809
G1 X104.895 Y50.014 E84.09309
G1 X105.410 Y50.087 E84.11738
G1 X106.292 Y50.087 E84.15863
G1 X107.467 Y51.263 E84.23641
G1 X108.643 Y50.087 E84.31419
G1 X109.819 Y50.087 E84.36919
G1 X110.040 Y50.014 E84.38005
G1 X110.040 Y48.838 E84.43505
G1 X110.260 Y48.470 E84.45512
G1 X110.848 Y47.882 E84.49401
G1 X111.069 Y47.515 E84.51404
G1 X110.040 Y46.486 E84.58210
G1 X110.040 Y44.134 E84.69210
G1 X110.113 Y43.620 E84.71642
G1 X111.583 Y42.150 E84.81365
G1 X111.730 Y41.856 E84.82900
G1 X111.289 Y40.533 E84.89423
G1 X111.069 Y40.166 E84.91429
G1 X111.069 Y39.872 E84.92804
G1 X110.922 Y39.725 E84.93776
G1 X110.922 Y39.431 E84.95151
G1 X110.775 Y39.284 E84.96123
G1 X110.775 Y38.990 E84.97498
G1 X110.554 Y38.622 E84.99500
G1 X110.113 Y37.300 E85.06023
G1 X109.893 Y36.932 E85.08029
G1 X109.893 Y36.638 E85.09404
G1 X109.746 Y36.491 E85.10376
G1 X109.746 Y36.197 E85.11751
G1 X109.599 Y36.050 E85.12723
G1 X109.599 Y35.756 E85.14098
G1 X109.378 Y35.389 E85.16100
G1 X108.937 Y34.066 E85.22623
G1 X108.717 Y33.698 E85.24629
G1 X108.717 Y33.404 E85.26004
G1 X108.570 Y33.257 E85.26976
G1 X108.570 Y32.963 E85.28351
G1 X108.423 Y32.816 E85.29323
G1 X108.423 Y32.522 E85.30698
G1 X110.187 Y30.758 E85.42365
G1 X115.699 Y27.450 E85.72433
G1 X116.140 Y27.303 E85.74608
G1 X116.434 Y27.010 E85.76553
G1 X116.875 Y26.863 E85.78727
G1 X117.610 Y26.422 E85.82736
G1 X122.314 Y26.422 E86.04736
G1 X124.078 Y28.185 E86.16404
G1 X124.298 Y28.553 E86.18410
G1 X124.298 Y32.669 E86.37661
G1 X124.372 Y33.183 E86.40090
G1 X124.666 Y33.477 E86.42035
G1 X124.886 Y33.845 E86.44041
G1 X124.886 Y36.197 E86.55042
G1 X124.666 Y36.565 E86.57048
G1 X124.372 Y36.859 E86.58993
G1 X124.298 Y37.373 E86.61422
G1 X124.298 Y37.961 E86.64172
G1 X124.519 Y38.328 E86.66175
G1 X124.813 Y38.622 E86.68120
G1 X124.886 Y39.137 E86.70552
G1 X124.886 Y40.019 E86.74677
G1 X125.401 Y40.092 E86.77106
G1 X126.283 Y40.092 E86.81232
G1 X127.458 Y41.268 E86.89010
G1 X128.634 Y40.092 E86.96788
G1 X131.280 Y40.092 E87.09163
G1 X132.456 Y41.268 E87.16941
G1 X133.632 Y40.092 E87.24719
G1 X136.278 Y40.092 E87.37094
G1 X137.454 Y41.268 E87.44872
G1 X138.630 Y40.092 E87.52650
G1 X141.276 Y40.092 E87.65025
G1 X142.599 Y41.415 E87.73776
G1 X142.966 Y41.195 E87.75779
G1 X144.142 Y40.019 E87.83557
G1 X144.142 Y30.611 E88.27558
G1 X144.142 Y28.847 E88.35809
G1 X144.216 Y28.332 E88.38241
G1 X146.127 Y26.422 E88.50880
G1 X150.830 Y26.422 E88.72881
G1 X151.271 Y26.569 E88.75055
G1 X154.946 Y28.773 E88.95100
G1 X155.387 Y28.920 E88.97274
G1 X155.681 Y29.214 E88.99219
G1 X156.122 Y29.361 E89.01393
G1 X157.960 Y30.464 E89.11417
G1 X160.018 Y32.522 E89.25030
G1 X160.018 Y33.110 E89.27780
G1 X159.797 Y33.478 E89.29787
G1 X159.356 Y34.801 E89.36309
G1 X159.136 Y35.168 E89.38312
G1 X159.136 Y35.462 E89.39687
G1 X158.989 Y35.609 E89.40659
G1 X158.989 Y35.903 E89.42033
G1 X158.842 Y36.050 E89.43005
G1 X158.842 Y36.344 E89.44380
G1 X158.621 Y36.712 E89.46387
G1 X158.180 Y38.035 E89.52909
G1 X157.960 Y38.402 E89.54912
G1 X157.960 Y38.696 E89.56287
G1 X157.813 Y38.843 E89.57259
G1 X157.813 Y39.137 E89.58633
G1 X157.666 Y39.284 E89.59605
G1 X157.666 Y39.578 E89.60980
G1 X157.445 Y39.945 E89.62987
G1 X157.004 Y41.268 E89.69509
G1 X156.784 Y41.636 E89.71512
G1 X156.784 Y41.930 E89.72887
G1 X156.637 Y42.077 E89.73859
G1 X156.637 Y42.371 E89.75233
G1 X156.490 Y42.518 E89.76205
G1 X156.490 Y42.811 E89.77580
G1 X156.269 Y43.179 E89.79587
G1 X155.828 Y44.502 E89.86109
G1 X155.608 Y44.869 E89.88112
G1 X155.608 Y45.163 E89.89487
G1 X155.461 Y45.310 E89.90459
G1 X155.461 Y45.604 E89.91833
G1 X155.314 Y45.751 E89.92805
G1 X155.314 Y46.045 E89.94180
G1 X155.093 Y46.413 E89.96187
G1 X154.652 Y47.736 E90.02709
G1 X154.432 Y48.103 E90.04712
G1 X154.432 Y48.397 E90.06087
G1 X154.285 Y48.544 E90.07059
G1 X154.285 Y48.838 E90.08434
G1 X154.138 Y48.985 E90.09406
G1 X154.138 Y49.279 E90.10780
G1 X153.917 Y49.647 E90.12787
G1 X153.476 Y50.970 E90.19309
G1 X153.256 Y51.337 E90.21312
G1 X153.256 Y51.631 E90.22687
G1 X153.109 Y51.778 E90.23659
G1 X153.109 Y52.072 E90.25034
G1 X152.962 Y52.219 E90.26006
G1 X152.962 Y52.513 E90.27380
G1 X152.741 Y52.881 E90.29387
G1 X152.300 Y54.204 E90.35909
G1 X152.080 Y54.571 E90.37912
G1 X152.080 Y54.865 E90.39287
G1 X151.933 Y55.012 E90.40259
G1 X151.933 Y55.306 E90.41634
G1 X151.786 Y55.453 E90.42606
G1 X151.786 Y55.747 E90.43980
G1 X151.639 Y55.894 E90.44952
G1 X151.639 Y56.188 E90.46327
G1 X151.418 Y56.556 E90.48334
G1 X150.977 Y57.879 E90.54856
G1 X150.757 Y58.246 E90.56859
G1 X150.757 Y58.540 E90.58234
G1 X150.610 Y58.687 E90.59206
G1 X150.610 Y58.981 E90.60580
G1 X150.463 Y59.128 E90.61552
G1 X150.463 Y59.422 E90.62927
G1 X150.242 Y59.789 E90.64934
G1 X149.801 Y61.112 E90.71456
G1 X149.581 Y61.480 E90.73459
G1 X149.581 Y61.774 E90.74834
G1 X149.434 Y61.921 E90.75806
G1 X149.434 Y62.214 E90.77180
G1 X149.287 Y62.361 E90.78152
G1 X149.287 Y62.655 E90.79527
G1 X149.066 Y63.023 E90.81534
G1 X148.625 Y64.346 E90.88056
G1 X148.405 Y64.713 E90.90059
G1 X148.405 Y65.007 E90.91434
G1 X148.258 Y65.154 E90.92406
G1 X148.258 Y65.448 E90.93781
G1 X146.200 Y67.506 E91.07393
G1 X145.686 Y67.580 E91.09825
G1 X136.278 Y67.580 E91.53826
G1 X126.870 Y67.580 E91.97827
G1 X122.755 Y67.580 E92.17078
G1 X122.240 Y67.506 E92.19510
G1 X120.329 Y65.595 E92.32150
G1 X120.329 Y65.301 E92.33524
G1 X120.109 Y64.934 E92.35527
G1 X119.521 Y63.170 E92.44224
G1 X119.300 Y62.802 E92.46230
G1 X119.300 Y62.508 E92.47605
G1 X119.153 Y62.361 E92.48577
G1 X119.153 Y62.067 E92.49952
G1 X119.006 Y61.921 E92.50924
G1 X119.006 Y61.627 E92.52299
G1 X118.786 Y61.259 E92.54301
G1 X118.198 Y59.495 E92.62998
G1 X117.977 Y59.128 E92.65005
G1 X117.977 Y58.834 E92.66380
G1 X117.684 Y58.687 E92.67915
G1 X116.508 Y59.863 E92.75693
G1 X116.140 Y60.083 E92.77699
G1 X113.788 Y60.083 E92.88699
G1 X113.420 Y59.863 E92.90706
G1 X112.538 Y58.981 E92.96539
G1 X112.245 Y59.128 E92.98074
G1 X111.363 Y60.010 E93.03908
G1 X110.848 Y60.083 E93.06340
G1 X109.084 Y60.083 E93.14590
G1 X108.570 Y60.010 E93.17023
G1 X107.688 Y59.128 E93.22856
G1 X107.394 Y58.981 E93.24391
G1 X106.512 Y59.863 E93.30225
G1 X106.145 Y60.083 E93.32231
G1 X103.793 Y60.083 E93.43231
G1 X103.425 Y59.863 E93.45238
G1 X102.543 Y58.981 E93.51071
G1 X102.250 Y59.128 E93.52606
G1 X101.368 Y60.010 E93.58440
G1 X100.853 Y60.083 E93.60872
G1 X99.089 Y60.083 E93.69122
G1 X98.574 Y60.010 E93.71555
G1 X97.104 Y58.540 E93.81277
G1 X96.811 Y58.687 E93.82812
G1 X96.811 Y58.981 E93.84187
G1 X96.590 Y59.348 E93.86194
G1 X96.002 Y61.112 E93.94891
G1 X95.782 Y61.480 E93.96893
G1 X95.782 Y61.774 E93.98268
G1 X95.635 Y61.921 E93.99240
G1 X95.635 Y62.214 E94.00615
G1 X95.488 Y62.361 E94.01587
G1 X95.488 Y62.655 E94.02962
G1 X95.267 Y63.023 E94.04968
G1 X94.679 Y64.787 E94.13665
G1 X94.459 Y65.154 E94.15668
G1 X94.459 Y65.448 E94.17043
G1 X92.695 Y67.212 E94.28710
G1 X92.327 Y67.433 E94.30717
G1 X82.920 Y67.433 E94.74718
G1 X73.512 Y67.433 E95.18719
G1 X68.808 Y67.433 E95.40719
G1 X68.441 Y67.212 E95.42725
G1 X66.530 Y65.301 E95.55365
G1 X66.530 Y65.007 E95.56740
G1 X66.383 Y64.860 E95.57712
G1 X66.383 Y64.566 E95.59087
G1 X66.163 Y64.199 E95.61089
G1 X65.722 Y62.876 E95.67612
G1 X65.501 Y62.508 E95.69618
G1 X65.501 Y62.214 E95.70993
G1 X65.354 Y62.067 E95.71965
G1 X65.354 Y61.774 E95.73340
G1 X65.207 Y61.627 E95.74312
G1 X65.207 Y61.333 E95.75687
G1 X64.987 Y60.965 E95.77689
G1 X64.546 Y59.642 E95.84212
G1 X64.325 Y59.275 E95.86218
G1 X64.325 Y58.981 E95.87593
G1 X64.178 Y58.834 E95.88565
G1 X64.178 Y58.540 E95.89940
G1 X64.031 Y58.393 E95.90912
G1 X64.031 Y58.099 E95.92287
G1 X63.811 Y57.732 E95.94289
G1 X63.370 Y56.409 E96.00812
G1 X63.149 Y56.041 E96.02818
G1 X63.149 Y55.747 E96.04193
G1 X63.002 Y55.600 E96.05165
G1 X63.002 Y55.306 E96.06540
G1 X62.855 Y55.159 E96.07512
G1 X62.855 Y54.865 E96.08887
G1 X62.708 Y54.718 E96.09859
G1 X62.708 Y54.424 E96.11234
G1 X62.488 Y54.057 E96.13236
G1 X62.047 Y52.734 E96.19759
G1 X61.826 Y52.366 E96.21765
G1 X61.826 Y52.072 E96.23140
G1 X61.679 Y51.925 E96.24112
G1 X61.679 Y51.631 E96.25487
G1 X61.532 Y51.484 E96.26459
G1 X61.532 Y51.190 E96.27834
G1 X61.312 Y50.823 E96.29836
G1 X60.871 Y49.500 E96.36359
G1 X60.650 Y49.132 E96.38365
G1 X60.650 Y48.838 E96.39740
G1 X60.503 Y48.691 E96.40712
G1 X60.503 Y48.397 E96.42087
G1 X60.356 Y48.250 E96.43059
G1 X60.356 Y47.956 E96.44434
G1 X60.136 Y47.589 E96.46436
G1 X59.695 Y46.266 E96.52959
G1 X59.474 Y45.898 E96.54965
G1 X59.474 Y45.604 E96.56340
G1 X59.327 Y45.457 E96.57312
G1 X59.327 Y45.163 E96.58687
G1 X59.180 Y45.016 E96.59659
G1 X59.180 Y44.722 E96.61034
G1 X58.960 Y44.355 E96.63036
G1 X58.519 Y43.032 E96.69559
G1 X58.298 Y42.664 E96.71565
G1 X58.298 Y42.371 E96.72940
G1 X58.151 Y42.224 E96.73912
G1 X58.151 Y41.930 E96.75287
G1 X58.004 Y41.783 E96.76259
G1 X58.004 Y41.489 E96.77634
G1 X57.784 Y41.121 E96.79636
G1 X57.343 Y39.798 E96.86159
G1 X57.122 Y39.431 E96.88165
G1 X57.122 Y39.137 E96.89540
G1 X56.975 Y38.990 E96.90512
G1 X56.975 Y38.696 E96.91887
G1 X56.828 Y38.549 E96.92859
G1 X56.828 Y38.255 E96.94234
G1 X56.608 Y37.888 E96.96236
G1 X56.167 Y36.565 E97.02759
G1 X55.946 Y36.197 E97.04765
G1 X55.946 Y35.903 E97.06140
G1 X55.799 Y35.756 E97.07112
G1 X55.799 Y35.462 E97.08487
G1 X55.652 Y35.315 E97.09459
G1 X55.652 Y35.021 E97.10834
G1 X55.432 Y34.654 E97.12836
G0 X55.432 Y34.654 F5400
G0 F3000 E96.52837
G0 X153.329 Y50.088 F5400
G0 F3000 E97.12836
G1 X153.035 Y50.970 E97.17184 F1200
G1 X152.815 Y51.337 E97.19187
G1 X152.815 Y51.631 E97.20562
G1 X152.668 Y51.778 E97.21534
G1 X152.668 Y52.072 E97.22909
G1 X152.521 Y52.219 E97.23881
G1 X152.521 Y52.513 E97.25256
G1 X152.300 Y52.881 E97.27262
G1 X151.859 Y54.204 E97.33784
G1 X151.639 Y54.571 E97.35787
G1 X151.639 Y54.865 E97.37162
G1 X151.492 Y55.012 E97.38134
G1 X151.492 Y55.306 E97.39509
G1 X151.345 Y55.453 E97.40481
G1 X151.345 Y55.747 E97.41856
G1 X151.198 Y55.894 E97.42828
G1 X151.198 Y56.188 E97.44202
G1 X150.977 Y56.556 E97.46209
G1 X150.536 Y57.879 E97.52731
G1 X150.316 Y58.246 E97.54734
G1 X150.316 Y58.540 E97.56109
G1 X150.169 Y58.687 E97.57081
G1 X150.169 Y58.981 E97.58456
G1 X150.022 Y59.128 E97.59428
G1 X150.022 Y59.422 E97.60802
G1 X149.801 Y59.789 E97.62809
G1 X149.360 Y61.112 E97.69331
G1 X149.140 Y61.480 E97.71334
G1 X149.140 Y61.774 E97.72709
G1 X148.993 Y61.921 E97.73681
G1 X148.993 Y62.214 E97.75056
G1 X148.846 Y62.361 E97.76028
G1 X148.846 Y62.655 E97.77402
G1 X148.625 Y63.023 E97.79409
G1 X148.184 Y64.346 E97.85931
G1 X147.964 Y64.713 E97.87934
G1 X147.964 Y65.007 E97.89309
G1 X147.817 Y65.154 E97.90281
G1 X147.817 Y65.448 E97.91656
G1 X146.347 Y66.918 E98.01379
G1 X145.980 Y67.139 E98.03385
G1 X136.572 Y67.139 E98.47386
G1 X127.164 Y67.139 E98.91387
G1 X122.461 Y67.139 E99.13387
G1 X122.093 Y66.918 E99.15394
G1 X120.770 Y65.595 E99.24145
G1 X120.770 Y65.301 E99.25520
G1 X120.550 Y64.934 E99.27522
G1 X119.962 Y63.170 E99.36219
G1 X119.741 Y62.802 E99.38226
G1 X119.741 Y62.508 E99.39600
G1 X119.594 Y62.361 E99.40572
G1 X119.594 Y62.067 E99.41947
G1 X119.447 Y61.921 E99.42919
G1 X119.447 Y61.627 E99.44294
G1 X119.227 Y61.259 E99.46297
G1 X118.639 Y59.495 E99.54993
G1 X118.418 Y59.128 E99.57000
G1 X118.418 Y58.834 E99.58375
G1 X118.271 Y58.687 E99.59347
G1 X118.271 Y58.393 E99.60722
G1 X118.124 Y58.246 E99.61694
G1 X118.124 Y57.952 E99.63068
G1 X117.831 Y58.099 E99.64603
G1 X116.361 Y59.569 E99.74326
G1 X115.846 Y59.642 E99.76759
G1 X114.082 Y59.642 E99.85009
G1 X113.567 Y59.569 E99.87441
G1 X112.685 Y58.687 E99.93275
G1 X112.392 Y58.540 E99.94810
G1 X111.510 Y59.422 E100.00643
G1 X111.142 Y59.642 E100.02650
G1 X108.790 Y59.642 E100.13650
G1 X108.423 Y59.422 E100.15656
G1 X107.541 Y58.540 E100.21490
G1 X107.247 Y58.687 E100.23025
G1 X106.365 Y59.569 E100.28858
G1 X105.851 Y59.642 E100.31290
G1 X104.087 Y59.642 E100.39541
G1 X103.572 Y59.569 E100.41973
G1 X102.690 Y58.687 E100.47807
G1 X102.397 Y58.540 E100.49342
G1 X101.515 Y59.422 E100.55175
G1 X101.147 Y59.642 E100.57182
G1 X98.795 Y59.642 E100.68182
G1 X98.427 Y59.422 E100.70188
G1 X96.957 Y57.952 E100.79911
G1 X96.664 Y57.805 E100.81446
G1 X96.664 Y58.099 E100.82821
G1 X96.517 Y58.246 E100.83793
G1 X96.517 Y58.540 E100.85168
G1 X96.370 Y58.687 E100.86140
G1 X96.370 Y58.981 E100.87514
G1 X96.149 Y59.348 E100.89521
G1 X95.561 Y61.112 E100.98218
G1 X95.341 Y61.480 E101.00220
G1 X95.341 Y61.774 E101.01595
G1 X95.194 Y61.921 E101.02567
G1 X95.194 Y62.214 E101.03942
G1 X95.047 Y62.361 E101.04914
G1 X95.047 Y62.655 E101.06289
G1 X94.826 Y63.023 E101.08295
G1 X94.238 Y64.787 E101.16992
G1 X94.018 Y65.154 E101.18995
G1 X94.018 Y65.448 E101.20370
G1 X92.548 Y66.918 E101.30093
G1 X92.033 Y66.992 E101.32525
G1 X82.626 Y66.992 E101.76526
G1 X73.218 Y66.992 E102.20527
G1 X69.102 Y66.992 E102.39777
G1 X68.588 Y66.918 E102.42210
G1 X66.971 Y65.301 E102.52905
G1 X66.971 Y65.007 E102.54279
G1 X66.824 Y64.860 E102.55251
G1 X66.824 Y64.566 E102.56626
G1 X66.604 Y64.199 E102.58629
G1 X66.163 Y62.876 E102.65151
G1 X65.942 Y62.508 E102.67158
G1 X65.942 Y62.214 E102.68533
G1 X65.795 Y62.067 E102.69505
G1 X65.795 Y61.774 E102.70879
G1 X65.648 Y61.627 E102.71851
G1 X65.648 Y61.333 E102.73226
G1 X65.428 Y60.965 E102.75229
G1 X64.987 Y59.642 E102.81751
G1 X64.766 Y59.275 E102.83758
G1 X64.766 Y58.981 E102.85133
G1 X64.619 Y58.834 E102.86105
G1 X64.619 Y58.540 E102.87479
G1 X64.472 Y58.393 E102.88451
G1 X64.472 Y58.099 E102.89826
G1 X64.252 Y57.732 E102.91829
G1 X63.811 Y56.409 E102.98351
G1 X63.590 Y56.041 E103.00358
G1 X63.590 Y55.747 E103.01733
G1 X63.443 Y55.600 E103.02705
G1 X63.443 Y55.306 E103.04079
G1 X63.296 Y55.159 E103.05051
G1 X63.296 Y54.865 E103.06426
G1 X63.149 Y54.718 E103.07398
G1 X63.149 Y54.424 E103.08773
G1 X62.929 Y54.057 E103.10776
G1 X62.488 Y52.734 E103.17298
G1 X62.267 Y52.366 E103.19305
G1 X62.267 Y52.072 E103.20679
G1 X62.120 Y51.925 E103.21651
G1 X62.120 Y51.631 E103.23026
G1 X61.973 Y51.484 E103.23998
G1 X61.973 Y51.190 E103.25373
G1 X61.753 Y50.823 E103.27376
G1 X61.312 Y49.500 E103.33898
G1 X61.091 Y49.132 E103.35905
G1 X61.091 Y48.838 E103.37280
G1 X60.944 Y48.691 E103.38251
G1 X60.944 Y48.397 E103.39626
G1 X60.797 Y48.250 E103.40598
G1 X60.797 Y47.956 E103.41973
G1 X60.577 Y47.589 E103.43976
G1 X60.136 Y46.266 E103.50498
G1 X59.915 Y45.898 E103.52505
G1 X59.915 Y45.604 E103.53880
G1 X59.768 Y45.457 E103.54852
G1 X59.768 Y45.163 E103.56226
G1 X59.621 Y45.016 E103.57198
G1 X59.621 Y44.722 E103.58573
G1 X59.401 Y44.355 E103.60576
G1 X58.960 Y43.032 E103.67098
G1 X58.739 Y42.664 E103.69105
G1 X58.739 Y42.371 E103.70480
G1 X58.592 Y42.224 E103.71452
G1 X58.592 Y41.930 E103.72826
G1 X58.445 Y41.783 E103.73798
G1 X58.445 Y41.489 E103.75173
G1 X58.225 Y41.121 E103.77176
G1 X57.784 Y39.798 E103.83698
G1 X57.563 Y39.431 E103.85705
G1 X57.563 Y39.137 E103.87080
G1 X57.416 Y38.990 E103.88052
G1 X57.416 Y38.696 E103.89426
G1 X57.269 Y38.549 E103.90398
G1 X57.269 Y38.255 E103.91773
G1 X57.049 Y37.888 E103.93776
G1 X56.608 Y36.565 E104.00298
G1 X56.387 Y36.197 E104.02305
G1 X56.387 Y35.903 E104.03680
G1 X56.240 Y35.756 E104.04652
G1 X56.240 Y35.462 E104.06026
G1 X56.093 Y35.315 E104.06998
G1 X56.093 Y35.021 E104.08373
G1 X55.873 Y34.654 E104.10376
G1 X55.799 Y34.286 E104.12131
G0 X153.329 Y50.088 F5400
G0 F3000 E103.52131
G0 X104.969 Y35.242 F5400
G0 F3000 E104.12131
G1 X104.675 Y35.977 E104.15833 F1200
G1 X104.381 Y36.859 E104.20181
G1 X104.160 Y37.226 E104.22184
G1 X104.160 Y37.520 E104.23559
G1 X104.013 Y37.667 E104.24531
G1 X104.013 Y37.961 E104.25906
G1 X103.866 Y38.108 E104.26878
G1 X103.866 Y38.402 E104.28252
G1 X103.646 Y38.769 E104.30259
G1 X103.205 Y40.092 E104.36781
G1 X102.985 Y40.460 E104.38784
G1 X102.985 Y40.754 E104.40159
G1 X102.838 Y40.901 E104.41131
G1 X102.838 Y41.195 E104.42506
G1 X102.691 Y41.342 E104.43478
G1 X102.691 Y41.636 E104.44852
G1 X102.544 Y41.783 E104.45824
G1 X104.454 Y43.693 E104.58464
G1 X104.454 Y46.045 E104.69464
G1 X104.381 Y46.560 E104.71896
G1 X103.499 Y47.442 E104.77730
G1 X103.425 Y47.662 E104.78815
G1 X104.454 Y48.691 E104.85622
G1 X104.454 Y50.455 E104.93872
G1 X104.969 Y50.528 E104.96301
G1 X106.145 Y50.528 E105.01801
G1 X106.512 Y50.749 E105.03808
G1 X107.394 Y51.631 E105.09641
G1 X107.688 Y51.484 E105.11176
G1 X108.570 Y50.602 E105.17010
G1 X109.084 Y50.528 E105.19442
G1 X110.260 Y50.528 E105.24942
G1 X110.481 Y50.455 E105.26028
G1 X110.481 Y48.691 E105.34278
G1 X111.509 Y47.662 E105.41084
G1 X111.289 Y47.295 E105.43087
G1 X110.701 Y46.707 E105.46976
G1 X110.481 Y46.339 E105.48983
G1 X110.481 Y43.693 E105.61358
G1 X112.244 Y41.930 E105.73026
G1 X112.097 Y41.783 E105.73997
G1 X112.097 Y41.489 E105.75372
G1 X111.950 Y41.342 E105.76344
G1 X111.950 Y41.048 E105.77719
G1 X111.803 Y40.901 E105.78691
G1 X111.803 Y40.607 E105.80066
G1 X111.583 Y40.239 E105.82069
G1 X111.142 Y38.916 E105.88591
G1 X110.922 Y38.549 E105.90598
G1 X110.922 Y38.255 E105.91972
G1 X110.775 Y38.108 E105.92944
G1 X110.775 Y37.814 E105.94319
G1 X110.628 Y37.667 E105.95291
G1 X110.628 Y37.373 E105.96666
G1 X110.407 Y37.006 E105.98669
G1 X109.966 Y35.683 E106.05191
G1 X109.746 Y35.315 E106.07198
G1 X109.746 Y35.021 E106.08572
G1 X109.599 Y34.874 E106.09544
G1 X109.599 Y34.580 E106.10919
G1 X109.452 Y34.433 E106.11891
G1 X109.452 Y34.139 E106.13266
G1 X109.231 Y33.772 E106.15269
G1 X108.937 Y32.890 E106.19617
G1 X108.937 Y32.448 E106.21682
G1 X110.407 Y30.978 E106.31405
G1 X110.848 Y30.831 E106.33579
G1 X111.142 Y30.537 E106.35524
G1 X111.583 Y30.390 E106.37698
G1 X111.877 Y30.096 E106.39643
G1 X112.318 Y29.949 E106.41817
G1 X116.728 Y27.303 E106.65871
G1 X117.169 Y27.157 E106.68045
G1 X117.463 Y26.863 E106.69990
G1 X122.167 Y26.863 E106.91990
G1 X122.534 Y27.083 E106.93996
G1 X123.857 Y28.406 E107.02747
G1 X123.857 Y33.110 E107.24747
G1 X124.445 Y33.698 E107.28637
G1 X124.445 Y36.344 E107.41012
G1 X123.857 Y36.932 E107.44901
G1 X123.857 Y38.108 E107.50401
G1 X124.445 Y38.696 E107.54291
G1 X124.445 Y40.460 E107.62541
G1 X124.960 Y40.533 E107.64970
G1 X126.136 Y40.533 E107.70470
G1 X126.503 Y40.754 E107.72477
G1 X127.385 Y41.636 E107.78310
G1 X127.679 Y41.489 E107.79845
G1 X128.561 Y40.607 E107.85679
G1 X129.075 Y40.533 E107.88111
G1 X130.839 Y40.533 E107.96362
G1 X131.354 Y40.607 E107.98794
G1 X132.236 Y41.489 E108.04627
G1 X132.529 Y41.636 E108.06162
G1 X133.411 Y40.754 E108.11996
G1 X133.779 Y40.533 E108.14002
G1 X136.131 Y40.533 E108.25002
G1 X136.499 Y40.754 E108.27009
G1 X137.381 Y41.636 E108.32842
G1 X137.674 Y41.489 E108.34377
G1 X138.556 Y40.607 E108.40211
G1 X139.071 Y40.533 E108.42643
G1 X140.835 Y40.533 E108.50893
G1 X141.350 Y40.607 E108.53326
G1 X142.525 Y41.783 E108.61104
G1 X142.746 Y41.856 E108.62189
G1 X144.510 Y40.092 E108.73857
G1 X144.583 Y39.578 E108.76286
G1 X144.583 Y30.170 E109.20287
G1 X144.583 Y28.406 E109.28538
G1 X146.053 Y26.936 E109.38261
G1 X146.567 Y26.863 E109.40693
G1 X150.977 Y26.863 E109.61318
G1 X153.182 Y28.185 E109.73345
G1 X153.623 Y28.332 E109.75520
G1 X153.917 Y28.626 E109.77464
G1 X154.358 Y28.773 E109.79639
G1 X154.652 Y29.067 E109.81583
G1 X155.093 Y29.214 E109.83758
G1 X158.033 Y30.978 E109.99793
G1 X159.503 Y32.448 E110.09516
G1 X159.577 Y32.963 E110.11948
G1 X159.430 Y33.404 E110.14123
G1 X159.283 Y33.551 E110.15095
G1 X159.283 Y33.845 E110.16470
G1 X159.136 Y33.992 E110.17442
G1 X159.136 Y34.286 E110.18816
G1 X158.989 Y34.433 E110.19788
G1 X158.989 Y34.727 E110.21163
G1 X158.768 Y35.095 E110.23170
G1 X158.327 Y36.418 E110.29692
G1 X158.107 Y36.785 E110.31695
G1 X158.107 Y37.079 E110.33070
G1 X157.960 Y37.226 E110.34042
G1 X157.960 Y37.520 E110.35416
G1 X157.813 Y37.667 E110.36388
G1 X157.813 Y37.961 E110.37763
G1 X157.592 Y38.329 E110.39770
G1 X157.151 Y39.651 E110.46292
G1 X156.931 Y40.019 E110.48295
G1 X156.931 Y40.313 E110.49670
G1 X156.784 Y40.460 E110.50642
G1 X156.784 Y40.754 E110.52016
G1 X156.637 Y40.901 E110.52988
G1 X156.637 Y41.195 E110.54363
G1 X156.416 Y41.562 E110.56370
G1 X155.975 Y42.885 E110.62892
G1 X155.755 Y43.252 E110.64895
G1 X155.755 Y43.546 E110.66270
G1 X155.608 Y43.693 E110.67242
G1 X155.608 Y43.987 E110.68616
G1 X155.461 Y44.134 E110.69588
G1 X155.461 Y44.428 E110.70963
G1 X155.240 Y44.796 E110.72970
G1 X154.799 Y46.119 E110.79492
G1 X154.579 Y46.486 E110.81495
G1 X154.579 Y46.780 E110.82870
G1 X154.432 Y46.927 E110.83842
G1 X154.432 Y47.221 E110.85217
G1 X154.285 Y47.368 E110.86189
G1 X154.285 Y47.662 E110.87563
G1 X154.064 Y48.030 E110.89570
G1 X153.623 Y49.353 E110.96092
G1 X153.403 Y49.867 E110.98708
G0 X104.969 Y35.242 F5400
G0 F3000 E110.38708
G0 X83.655 Y40.533 F5400
G0 F3000 E110.98708
G1 X86.301 Y40.533 E111.11084 F1200
G1 X87.477 Y41.709 E111.18862
G1 X88.652 Y40.533 E111.26640
G1 X89.828 Y40.533 E111.32140
G1 X90.343 Y40.460 E111.34570
G1 X90.490 Y40.313 E111.35542
G1 X90.490 Y39.137 E111.41042
G1 X90.563 Y38.622 E111.43474
G1 X90.857 Y38.328 E111.45419
G1 X90.931 Y37.814 E111.47848
G1 X90.931 Y37.226 E111.50598
G1 X90.857 Y36.712 E111.53027
G1 X90.563 Y36.418 E111.54972
G1 X90.490 Y35.903 E111.57404
G1 X90.490 Y34.139 E111.65655
G1 X90.563 Y33.624 E111.68087
G1 X90.857 Y33.330 E111.70032
G1 X90.931 Y32.816 E111.72461
G1 X90.931 Y28.700 E111.91711
G1 X91.004 Y28.185 E111.94144
G1 X92.400 Y26.789 E112.03378
G1 X92.915 Y26.716 E112.05811
G1 X97.031 Y26.716 E112.25061
G1 X97.472 Y26.863 E112.27235
G1 X100.412 Y28.626 E112.43271
G1 X100.853 Y28.773 E112.45445
G1 X101.147 Y29.067 E112.47390
G1 X101.588 Y29.214 E112.49564
G1 X104.528 Y30.978 E112.65600
G1 X105.704 Y32.154 E112.73378
G1 X105.924 Y32.522 E112.75385
G1 X105.483 Y33.845 E112.81907
G1 X105.336 Y33.992 E112.82879
G1 X105.336 Y34.286 E112.84254
G1 X105.189 Y34.433 E112.85226
G1 X105.189 Y34.727 E112.86600
G1 X105.042 Y34.874 E112.87572
G1 X105.042 Y35.168 E112.88947
G0 X83.655 Y40.533 F5400
G0 F3000 E112.28947
G0 X55.652 Y34.139 F5400
G0 F3000 E112.88947
G1 X55.652 Y33.845 E112.90322 F1200
G1 X55.505 Y33.698 E112.91294
G1 X55.505 Y33.404 E112.92669
G1 X55.285 Y33.037 E112.94672
G1 X55.211 Y32.522 E112.97104
G1 X55.432 Y32.154 E112.99110
G1 X56.902 Y30.684 E113.08833
G1 X57.343 Y30.537 E113.11008
G1 X57.637 Y30.243 E113.12952
G1 X58.078 Y30.096 E113.15127
G1 X61.753 Y27.891 E113.35171
G1 X62.194 Y27.744 E113.37345
G1 X62.488 Y27.450 E113.39290
G1 X62.929 Y27.303 E113.41464
G1 X63.664 Y26.863 E113.45473
G1 X63.811 Y26.716 E113.46445
G1 X68.514 Y26.716 E113.68446
G1 X68.882 Y26.936 E113.70452
G1 X70.205 Y28.259 E113.79203
G1 X70.205 Y39.431 E114.31454
G1 X70.278 Y39.945 E114.33883
G1 X71.160 Y40.827 E114.39716
G1 X71.381 Y41.195 E114.41723
G1 X72.189 Y42.003 E114.47069
G1 X73.659 Y40.533 E114.56792
G1 X76.305 Y40.533 E114.69167
G1 X77.481 Y41.709 E114.76945
G1 X78.657 Y40.533 E114.84724
G1 X81.303 Y40.533 E114.97099
G1 X82.479 Y41.709 E115.04877
G1 X83.508 Y40.680 E115.11684
G0 X55.652 Y34.139 F5400
G0 X66.383 Y39.284
G1 X66.310 Y39.063 E115.12769 F1200
G1 X66.016 Y39.063 E115.14144
G1 X66.163 Y39.504 E115.16315
G1 X66.383 Y39.284 E115.17772
G0 X66.383 Y39.284 F5400
G0 F3000 E114.57772
G0 X88.652 Y40.974 F5400
G0 F3000 E115.17772
G1 X89.828 Y40.974 E115.23272 F1200
G1 X90.343 Y40.901 E115.25701
G1 X90.931 Y40.313 E115.29591
G1 X90.931 Y39.137 E115.35091
G1 X91.004 Y38.622 E115.37523
G1 X91.298 Y38.328 E115.39468
G1 X91.372 Y37.814 E115.41897
G1 X91.372 Y37.226 E115.44647
G1 X91.298 Y36.712 E115.47076
G1 X91.004 Y36.418 E115.49021
G1 X90.931 Y35.903 E115.51453
G1 X90.931 Y34.139 E115.59704
G1 X91.004 Y33.624 E115.62136
G1 X91.298 Y33.330 E115.64081
G1 X91.372 Y32.816 E115.66510
G1 X91.372 Y28.700 E115.85760
G1 X91.445 Y28.185 E115.88193
G1 X92.474 Y27.157 E115.94999
G1 X97.178 Y27.157 E116.16999
G1 X99.383 Y28.479 E116.29025
G1 X99.824 Y28.626 E116.31200
G1 X100.118 Y28.920 E116.33144
G1 X100.559 Y29.067 E116.35319
G1 X104.601 Y31.493 E116.57369
G1 X105.483 Y32.375 E116.63203
G1 X105.483 Y32.669 E116.64577
G1 X105.336 Y32.816 E116.65549
G1 X105.336 Y33.110 E116.66924
G1 X105.189 Y33.257 E116.67896
G1 X105.189 Y33.551 E116.69271
G1 X104.969 Y33.919 E116.71278
G1 X104.528 Y35.242 E116.77800
G1 X104.307 Y35.609 E116.79803
G1 X104.307 Y35.903 E116.81178
G1 X104.160 Y36.050 E116.82150
G1 X104.160 Y36.344 E116.83524
G1 X104.013 Y36.491 E116.84496
G1 X104.013 Y36.785 E116.85871
G1 X103.793 Y37.153 E116.87878
G1 X103.352 Y38.476 E116.94400
G1 X103.131 Y38.843 E116.96403
G1 X103.131 Y39.137 E116.97778
G1 X102.985 Y39.284 E116.98750
G1 X102.985 Y39.578 E117.00124
G1 X102.838 Y39.725 E117.01096
G1 X102.838 Y40.019 E117.02471
G1 X102.617 Y40.386 E117.04478
G1 X102.176 Y41.709 E117.11000
G1 X102.323 Y42.003 E117.12535
G1 X103.793 Y43.473 E117.22258
G1 X104.013 Y43.840 E117.24265
G1 X104.013 Y46.486 E117.36639
G1 X102.985 Y47.515 E117.43446
G1 X103.205 Y47.882 E117.45448
G1 X103.793 Y48.470 E117.49338
G1 X104.013 Y48.838 E117.51344
G1 X104.013 Y50.602 E117.59595
G1 X104.087 Y50.969 E117.61346
G1 X105.851 Y50.969 E117.69596
G1 X106.365 Y51.043 E117.72028
G1 X107.247 Y51.925 E117.77862
G1 X107.541 Y52.072 E117.79397
G1 X108.423 Y51.190 E117.85230
G1 X108.790 Y50.969 E117.87237
G1 X110.848 Y50.969 E117.96862
G1 X110.922 Y50.455 E117.99291
G1 X110.922 Y48.691 E118.07542
G1 X111.950 Y47.662 E118.14348
G1 X111.730 Y47.295 E118.16351
G1 X111.142 Y46.707 E118.20240
G1 X110.922 Y46.339 E118.22247
G1 X110.922 Y43.693 E118.34621
G1 X112.685 Y41.930 E118.46289
G1 X112.538 Y41.783 E118.47261
G1 X112.538 Y41.489 E118.48636
G1 X112.391 Y41.342 E118.49608
G1 X112.391 Y41.048 E118.50983
G1 X112.244 Y40.901 E118.51955
G1 X112.244 Y40.607 E118.53329
G1 X112.024 Y40.239 E118.55332
G1 X111.583 Y38.916 E118.61855
G1 X111.362 Y38.549 E118.63861
G1 X111.362 Y38.255 E118.65236
G1 X111.216 Y38.108 E118.66208
G1 X111.216 Y37.814 E118.67583
G1 X111.069 Y37.667 E118.68555
G1 X111.069 Y37.373 E118.69930
G1 X110.848 Y37.006 E118.71932
G1 X110.407 Y35.683 E118.78455
G1 X110.187 Y35.315 E118.80461
G1 X110.187 Y35.021 E118.81836
G1 X110.040 Y34.874 E118.82808
G1 X110.040 Y34.580 E118.84183
G1 X109.893 Y34.433 E118.85155
G1 X109.893 Y34.139 E118.86530
G1 X109.672 Y33.772 E118.88532
G1 X109.378 Y32.890 E118.92880
G1 X109.378 Y32.448 E118.94946
G1 X110.260 Y31.566 E119.00779
G1 X113.935 Y29.361 E119.20823
G1 X114.376 Y29.214 E119.22997
G1 X114.670 Y28.920 E119.24942
G1 X115.111 Y28.773 E119.27116
G1 X115.405 Y28.479 E119.29061
G1 X115.846 Y28.332 E119.31236
G1 X117.316 Y27.450 E119.39253
G1 X117.463 Y27.303 E119.40225
G1 X122.167 Y27.303 E119.62225
G1 X122.534 Y27.524 E119.64232
G1 X123.416 Y28.406 E119.70065
G1 X123.416 Y33.110 E119.92065
G1 X123.490 Y33.183 E119.92550
G0 X88.652 Y40.974 F5400
G0 F3000 E119.32550
G0 X68.882 Y27.377 F5400
G0 F3000 E119.92550
G1 X69.764 Y28.259 E119.98383 F1200
G1 X69.764 Y37.667 E120.42384
G1 X69.764 Y39.431 E120.50635
G1 X69.837 Y39.945 E120.53064
G1 X70.719 Y40.827 E120.58897
G1 X70.940 Y41.195 E120.60904
G1 X71.675 Y41.930 E120.65765
G1 X71.675 Y42.518 E120.68516
G1 X71.748 Y42.885 E120.70267
G1 X73.659 Y40.974 E120.82906
G1 X76.305 Y40.974 E120.95282
G1 X77.481 Y42.150 E121.03060
G1 X78.657 Y40.974 E121.10838
G1 X81.303 Y40.974 E121.23214
G1 X82.479 Y42.150 E121.30992
G1 X83.655 Y40.974 E121.38770
G1 X86.301 Y40.974 E121.51146
G1 X87.477 Y42.150 E121.58924
G1 X88.579 Y41.048 E121.66215
G0 X68.882 Y27.377 F5400
G0 F3000 E121.06215
G0 X146.127 Y66.698 F5400
G0 F3000 E121.66215
G1 X136.866 Y66.698 E122.09528 F1200
G1 X127.458 Y66.698 E122.53529
G1 X122.755 Y66.698 E122.75529
G1 X122.240 Y66.624 E122.77962
G1 X121.211 Y65.595 E122.84768
G1 X121.211 Y65.301 E122.86143
G1 X120.991 Y64.934 E122.88145
G1 X120.403 Y63.170 E122.96842
G1 X120.182 Y62.802 E122.98849
G1 X120.182 Y62.508 E123.00224
G1 X120.035 Y62.361 E123.01196
G1 X120.035 Y62.067 E123.02570
G1 X119.888 Y61.921 E123.03542
G1 X119.888 Y61.627 E123.04917
G1 X119.668 Y61.259 E123.06920
G1 X119.080 Y59.495 E123.15617
G1 X118.859 Y59.128 E123.17623
G1 X118.859 Y58.834 E123.18998
G1 X118.712 Y58.687 E123.19970
G1 X118.712 Y58.393 E123.21345
G1 X118.565 Y58.246 E123.22317
G1 X118.565 Y57.952 E123.23692
G1 X118.125 Y57.364 E123.27128
G1 X116.361 Y59.128 E123.38795
G1 X115.846 Y59.201 E123.41228
G1 X114.082 Y59.201 E123.49478
G1 X113.567 Y59.128 E123.51910
G1 X112.685 Y58.246 E123.57744
G1 X112.392 Y58.099 E123.59279
G1 X111.510 Y58.981 E123.65112
G1 X111.142 Y59.201 E123.67119
G1 X108.790 Y59.201 E123.78119
G1 X108.423 Y58.981 E123.80125
G1 X107.541 Y58.099 E123.85959
G1 X107.247 Y58.246 E123.87494
G1 X106.365 Y59.128 E123.93327
G1 X105.851 Y59.201 E123.95760
G1 X104.087 Y59.201 E124.04010
G1 X103.572 Y59.128 E124.06442
G1 X102.690 Y58.246 E124.12276
G1 X102.397 Y58.099 E124.13811
G1 X101.515 Y58.981 E124.19644
G1 X101.147 Y59.201 E124.21651
G1 X98.795 Y59.201 E124.32651
G1 X98.427 Y58.981 E124.34657
G1 X96.663 Y57.217 E124.46325
G1 X96.223 Y57.805 E124.49761
G1 X96.223 Y58.099 E124.51136
G1 X96.076 Y58.246 E124.52108
G1 X96.076 Y58.540 E124.53483
G1 X95.929 Y58.687 E124.54455
G1 X95.929 Y58.981 E124.55830
G1 X95.708 Y59.348 E124.57836
G1 X95.120 Y61.112 E124.66533
G1 X94.900 Y61.480 E124.68536
G1 X94.900 Y61.774 E124.69910
G1 X94.753 Y61.921 E124.70882
G1 X94.753 Y62.214 E124.72257
G1 X94.606 Y62.361 E124.73229
G1 X94.606 Y62.655 E124.74604
G1 X94.385 Y63.023 E124.76611
G1 X93.797 Y64.787 E124.85307
G1 X93.577 Y65.154 E124.87310
G1 X93.577 Y65.448 E124.88685
G1 X92.695 Y66.330 E124.94518
G1 X92.327 Y66.551 E124.96525
G1 X82.920 Y66.551 E125.40526
G1 X73.512 Y66.551 E125.84527
G1 X68.808 Y66.551 E126.06527
G1 X68.441 Y66.330 E126.08533
G1 X67.412 Y65.301 E126.15340
G1 X67.412 Y65.007 E126.16714
G1 X67.265 Y64.860 E126.17686
G1 X67.265 Y64.566 E126.19061
G1 X67.045 Y64.199 E126.21064
G1 X66.604 Y62.876 E126.27586
G1 X66.383 Y62.508 E126.29593
G1 X66.383 Y62.214 E126.30968
G1 X66.236 Y62.067 E126.31940
G1 X66.236 Y61.774 E126.33315
G1 X66.089 Y61.627 E126.34286
G1 X66.089 Y61.333 E126.35661
G1 X65.869 Y60.965 E126.37664
G1 X65.428 Y59.642 E126.44186
G1 X65.207 Y59.275 E126.46193
G1 X65.207 Y58.981 E126.47568
G1 X65.060 Y58.834 E126.48540
G1 X65.060 Y58.540 E126.49915
G1 X64.913 Y58.393 E126.50887
G1 X64.913 Y58.099 E126.52261
G1 X64.693 Y57.732 E126.54264
G1 X64.252 Y56.409 E126.60786
G1 X64.031 Y56.041 E126.62793
G1 X64.031 Y55.747 E126.64168
G1 X63.884 Y55.600 E126.65140
G1 X63.884 Y55.306 E126.66515
G1 X63.737 Y55.159 E126.67487
G1 X63.737 Y54.865 E126.68861
G1 X63.590 Y54.718 E126.69833
G1 X63.590 Y54.424 E126.71208
G1 X63.370 Y54.057 E126.73211
G1 X62.929 Y52.734 E126.79733
G1 X62.708 Y52.366 E126.81740
G1 X62.708 Y52.072 E126.83115
G1 X62.561 Y51.925 E126.84087
G1 X62.561 Y51.631 E126.85461
G1 X62.414 Y51.484 E126.86433
G1 X62.414 Y51.190 E126.87808
G1 X62.194 Y50.823 E126.89811
G1 X61.753 Y49.500 E126.96333
G1 X61.532 Y49.132 E126.98340
G1 X61.532 Y48.838 E126.99715
G1 X61.385 Y48.691 E127.00687
G1 X61.385 Y48.397 E127.02061
G1 X61.238 Y48.250 E127.03033
G1 X61.238 Y47.956 E127.04408
G1 X61.018 Y47.589 E127.06411
G1 X60.577 Y46.266 E127.12933
G1 X60.356 Y45.898 E127.14940
G1 X60.356 Y45.604 E127.16315
G1 X60.209 Y45.457 E127.17287
G1 X60.209 Y45.163 E127.18661
G1 X60.062 Y45.016 E127.19633
G1 X60.062 Y44.722 E127.21008
G1 X59.842 Y44.355 E127.23011
G1 X59.401 Y43.032 E127.29533
G1 X59.180 Y42.664 E127.31540
G1 X59.180 Y42.371 E127.32915
G1 X59.033 Y42.224 E127.33887
G1 X59.033 Y41.930 E127.35262
G1 X58.886 Y41.783 E127.36234
G1 X58.886 Y41.489 E127.37608
G1 X58.666 Y41.121 E127.39611
G1 X58.225 Y39.798 E127.46133
G1 X58.004 Y39.431 E127.48140
G1 X58.004 Y39.137 E127.49515
G1 X57.857 Y38.990 E127.50487
G1 X57.857 Y38.696 E127.51862
G1 X57.710 Y38.549 E127.52834
G1 X57.710 Y38.255 E127.54208
G1 X57.490 Y37.888 E127.56211
G1 X57.049 Y36.565 E127.62733
G1 X56.828 Y36.197 E127.64740
G1 X56.828 Y35.903 E127.66115
G1 X56.681 Y35.756 E127.67087
G1 X56.681 Y35.462 E127.68462
G1 X56.534 Y35.315 E127.69434
G1 X56.534 Y35.021 E127.70808
G1 X56.314 Y34.654 E127.72811
G1 X55.873 Y33.331 E127.79333
G1 X55.652 Y32.963 E127.81340
G1 X55.652 Y32.375 E127.84090
G1 X56.828 Y31.199 E127.91869
G1 X57.931 Y30.537 E127.97884
G1 X58.372 Y30.390 E128.00058
G1 X58.666 Y30.096 E128.02002
G1 X59.107 Y29.949 E128.04176
G1 X62.782 Y27.744 E128.24220
G1 X63.223 Y27.597 E128.26395
G1 X63.517 Y27.303 E128.28339
G1 X63.958 Y27.157 E128.30513
G1 X68.661 Y27.157 E128.52513
G1 X68.735 Y27.230 E128.53001
G0 X146.127 Y66.698 F5400
G0 F3000 E127.93002
G0 X123.637 Y33.330 F5400
G0 F3000 E128.53001
G1 X123.931 Y33.624 E128.54945 F1200
G1 X124.004 Y34.139 E128.57378
G1 X124.004 Y35.903 E128.65628
G1 X123.931 Y36.418 E128.68060
G1 X123.637 Y36.712 E128.70004
G1 X123.416 Y37.079 E128.72006
G1 X123.416 Y37.667 E128.74756
G1 X123.490 Y38.181 E128.77185
G1 X123.784 Y38.475 E128.79129
G1 X124.004 Y38.843 E128.81136
G1 X124.004 Y40.607 E128.89386
G1 X124.298 Y40.901 E128.91330
G1 X124.813 Y40.974 E128.93759
G1 X126.283 Y40.974 E129.00635
G1 X127.458 Y42.150 E129.08414
G1 X128.634 Y40.974 E129.16193
G1 X131.280 Y40.974 E129.28568
G1 X132.456 Y42.150 E129.36346
G1 X133.632 Y40.974 E129.44125
G1 X136.278 Y40.974 E129.56500
G1 X137.454 Y42.150 E129.64279
G1 X138.630 Y40.974 E129.72058
G1 X141.276 Y40.974 E129.84433
G1 X143.040 Y42.738 E129.96100
G1 X143.113 Y41.930 E129.99895
G1 X145.024 Y40.019 E130.12535
G1 X145.024 Y30.611 E130.56535
G1 X145.024 Y28.847 E130.64786
G1 X145.098 Y28.332 E130.67218
G1 X146.127 Y27.303 E130.74023
G1 X150.830 Y27.303 E130.96024
G1 X151.271 Y27.450 E130.98198
G1 X154.946 Y29.655 E131.18242
G1 X155.387 Y29.802 E131.20416
G1 X155.681 Y30.096 E131.22360
G1 X156.122 Y30.243 E131.24535
G1 X157.960 Y31.346 E131.34558
G1 X159.136 Y32.522 E131.42337
G1 X159.136 Y33.110 E131.45087
G1 X158.915 Y33.478 E131.47093
G1 X158.474 Y34.801 E131.53615
G1 X158.254 Y35.168 E131.55617
G1 X158.254 Y35.462 E131.56992
G1 X158.107 Y35.609 E131.57964
G1 X158.107 Y35.903 E131.59338
G1 X157.960 Y36.050 E131.60310
G1 X157.960 Y36.344 E131.61685
G1 X157.739 Y36.712 E131.63692
G1 X157.298 Y38.035 E131.70213
G1 X157.078 Y38.402 E131.72215
G1 X157.078 Y38.696 E131.73590
G1 X156.931 Y38.843 E131.74562
G1 X156.931 Y39.137 E131.75937
G1 X156.784 Y39.284 E131.76909
G1 X156.784 Y39.578 E131.78284
G1 X156.563 Y39.945 E131.80290
G1 X156.122 Y41.268 E131.86812
G1 X155.902 Y41.636 E131.88814
G1 X155.902 Y41.930 E131.90189
G1 X155.755 Y42.077 E131.91161
G1 X155.755 Y42.371 E131.92535
G1 X155.608 Y42.518 E131.93507
G1 X155.608 Y42.811 E131.94882
G1 X155.387 Y43.179 E131.96889
G1 X154.946 Y44.502 E132.03410
G1 X154.726 Y44.869 E132.05412
G1 X154.726 Y45.163 E132.06787
G1 X154.579 Y45.310 E132.07759
G1 X154.579 Y45.604 E132.09134
G1 X154.432 Y45.751 E132.10106
G1 X154.432 Y46.045 E132.11481
G1 X154.211 Y46.413 E132.13487
G1 X153.770 Y47.736 E132.20009
G1 X153.550 Y48.103 E132.22011
G1 X153.550 Y48.397 E132.23386
G1 X153.403 Y48.544 E132.24358
G1 X153.403 Y48.838 E132.25732
G1 X153.256 Y48.985 E132.26704
G1 X153.256 Y49.279 E132.28079
G1 X153.035 Y49.647 E132.30086
G1 X152.594 Y50.970 E132.36607
G1 X152.374 Y51.337 E132.38609
G1 X152.374 Y51.631 E132.39984
G1 X152.227 Y51.778 E132.40956
G1 X152.227 Y52.072 E132.42331
G1 X152.080 Y52.219 E132.43303
G1 X152.080 Y52.513 E132.44678
G1 X151.859 Y52.881 E132.46684
G1 X151.418 Y54.204 E132.53206
G1 X151.198 Y54.571 E132.55208
G1 X151.198 Y54.865 E132.56583
G1 X151.051 Y55.012 E132.57555
G1 X151.051 Y55.306 E132.58929
G1 X150.904 Y55.453 E132.59901
G1 X150.904 Y55.747 E132.61276
G1 X150.757 Y55.894 E132.62248
G1 X150.757 Y56.188 E132.63623
G1 X150.536 Y56.556 E132.65630
G1 X150.095 Y57.879 E132.72151
G1 X149.875 Y58.246 E132.74153
G1 X149.875 Y58.540 E132.75528
G1 X149.728 Y58.687 E132.76500
G1 X149.728 Y58.981 E132.77875
G1 X149.581 Y59.128 E132.78847
G1 X149.581 Y59.422 E132.80222
G1 X149.360 Y59.789 E132.82228
G1 X148.919 Y61.112 E132.88750
G1 X148.699 Y61.480 E132.90752
G1 X148.699 Y61.774 E132.92126
G1 X148.552 Y61.921 E132.93098
G1 X148.552 Y62.214 E132.94473
G1 X148.405 Y62.361 E132.95445
G1 X148.405 Y62.655 E132.96820
G1 X148.184 Y63.023 E132.98827
G1 X147.743 Y64.346 E133.05348
G1 X147.523 Y64.713 E133.07350
G1 X147.523 Y65.007 E133.08725
G1 X147.376 Y65.154 E133.09697
G1 X147.376 Y65.448 E133.11072
G1 X146.200 Y66.624 E133.18851
G0 X123.637 Y33.330 F5400
G0 X148.478 Y38.916
G1 X148.405 Y39.431 E133.21280 F1200
G1 X148.625 Y39.651 E133.22737
G1 X148.919 Y39.063 E133.25809
G1 X148.625 Y39.063 E133.27184
G1 X148.478 Y38.916 E133.28156
G0 X148.478 Y38.916 F5400
G0 X148.037 Y32.007
G1 X148.552 Y31.493 E133.31557 F1200
G1 X148.037 Y31.126 E133.34512
G1 X147.964 Y31.640 E133.36942
G1 X148.037 Y32.007 E133.38693
G0 X148.037 Y32.007 F5400
G0 F3000 E132.78693
G0 X148.331 Y39.945 F5400
G0 F3000 E133.38693
G1 X148.625 Y40.092 E133.40231 F1200
G1 X148.919 Y39.945 E133.41768
G1 X149.581 Y38.843 E133.47780
G1 X149.507 Y38.622 E133.48865
G1 X148.625 Y38.622 E133.52989
G1 X148.037 Y38.035 E133.56879
G1 X147.964 Y38.549 E133.59308
G1 X147.964 Y39.137 E133.62057
G1 X148.037 Y39.651 E133.64487
G1 X148.331 Y39.945 E133.66431
G0 X148.331 Y39.945 F5400
G0 F3000 E133.06430
G0 X142.966 Y48.397 F5400
G0 F3000 E133.66431
G1 X143.481 Y48.470 E133.68860 F1200
G1 X143.554 Y47.956 E133.71289
G1 X143.554 Y46.780 E133.76790
G1 X143.481 Y46.560 E133.77875
G1 X143.187 Y46.854 E133.79819
G1 X142.966 Y47.221 E133.81821
G1 X142.966 Y47.956 E133.85258
G1 X142.966 Y48.397 E133.87321
G0 X142.966 Y48.397 F5400
G0 F3000 E133.27321
G0 X136.719 Y48.470 F5400
G0 F3000 E133.87321
G1 X137.748 Y48.470 E133.92134 F1200
G1 X138.262 Y48.397 E133.94563
G1 X137.674 Y47.809 E133.98453
G1 X137.381 Y47.662 E133.99988
G1 X136.793 Y48.250 E134.03877
G1 X136.719 Y48.470 E134.04964
G0 X136.719 Y48.470 F5400
G0 F3000 E133.44963
G0 X131.721 Y48.470 F5400
G0 F3000 E134.04964
G1 X132.750 Y48.470 E134.09776 F1200
G1 X133.264 Y48.397 E134.12206
G1 X132.676 Y47.809 E134.16095
G1 X132.383 Y47.662 E134.17630
G1 X131.795 Y48.250 E134.21519
G1 X131.721 Y48.470 E134.22606
G0 X131.721 Y48.470 F5400
G0 X127.752 Y47.883
G1 X127.679 Y48.103 E134.23691 F1200
G1 X127.752 Y48.470 E134.25443
G1 X128.193 Y48.470 E134.27505
G1 X128.046 Y48.177 E134.29041
G1 X127.752 Y47.883 E134.30984
G0 X127.752 Y47.883 F5400
G0 X120.109 Y31.419
G1 X120.476 Y31.346 E134.32736 F1200
G1 X120.403 Y31.126 E134.33821
G1 X120.109 Y31.419 E134.35764
G0 X120.109 Y31.419 F5400
G0 X116.067 Y33.845
G1 X116.214 Y34.139 E134.37302 F1200
G1 X116.360 Y34.139 E134.37987
G1 X116.434 Y33.624 E134.40419
G1 X116.214 Y33.551 E134.41504
G1 X116.067 Y33.845 E134.43042
G0 X116.067 Y33.845 F5400
G0 X98.281 Y33.404
G1 X98.648 Y33.771 E134.45471 F1200
G1 X98.648 Y33.478 E134.46843
G1 X98.501 Y33.331 E134.47815
G1 X98.281 Y33.404 E134.48900
G0 X98.281 Y33.404 F5400
G0 X94.385 Y31.419
G1 X94.826 Y31.419 E134.50963 F1200
G1 X94.679 Y31.126 E134.52498
G1 X94.312 Y31.052 E134.54250
G1 X94.385 Y31.419 E134.56001
G0 X94.385 Y31.419 F5400
G0 X86.889 Y48.323
G1 X87.109 Y48.103 E134.57458 F1200
G1 X86.889 Y48.323 E134.58916
G0 X86.889 Y48.323 F5400
G0 F3000 E133.98915
G0 X81.891 Y48.323 F5400
G0 F3000 E134.58916
G1 X82.920 Y48.323 E134.63728 F1200
G1 X83.140 Y48.250 E134.64813
G1 X82.552 Y47.662 E134.68703
G1 X82.259 Y47.809 E134.70238
G1 X81.965 Y48.103 E134.72182
G1 X81.891 Y48.323 E134.73268
G0 X81.891 Y48.323 F5400
G0 X76.820 Y48.250
G1 X77.334 Y48.323 E134.75697 F1200
G1 X77.922 Y48.323 E134.78447
G1 X77.995 Y48.103 E134.79532
G1 X77.701 Y47.809 E134.81476
G1 X77.408 Y47.662 E134.83011
G1 X76.820 Y48.250 E134.86900
G0 X76.820 Y48.250 F5400
G0 F3000 E134.26900
G0 X66.824 Y38.255 F5400
G0 F3000 E134.86900
G1 X66.457 Y38.476 E134.88904 F1200
G1 X66.163 Y38.622 E134.90440
G1 X65.281 Y38.622 E134.94565
G1 X65.354 Y38.990 E134.96317
G1 X65.648 Y39.284 E134.98260
G1 X65.795 Y39.725 E135.00435
G1 X66.163 Y39.945 E135.02437
G1 X66.751 Y39.651 E135.05511
G1 X66.824 Y39.137 E135.07941
G1 X66.824 Y38.255 E135.12065
G0 X66.824 Y38.255 F5400
G0 X66.163 Y31.419
G1 X66.457 Y31.566 E135.13603 F1200
G1 X66.751 Y31.860 E135.15547
G1 X66.824 Y31.052 E135.19342
G1 X66.457 Y31.126 E135.21094
G1 X66.163 Y31.419 E135.23036
G0 X66.163 Y31.419 F5400
G0 F3000 E134.63036
G0 X60.724 Y29.361 F5400
G0 F3000 E135.23036
G1 X61.165 Y29.214 E135.25211 F1200
G1 X61.459 Y28.920 E135.27155
G1 X61.900 Y28.773 E135.29329
G1 X63.737 Y27.671 E135.39349
G1 X64.252 Y27.597 E135.41782
G1 X68.661 Y27.597 E135.62407
G1 X69.249 Y28.185 E135.66296
G1 X69.323 Y28.700 E135.68729
G1 X69.323 Y38.108 E136.12729
G1 X69.323 Y39.872 E136.20979
G1 X70.205 Y40.754 E136.26813
G1 X70.425 Y41.121 E136.28815
G1 X71.013 Y41.709 E136.32704
G1 X71.234 Y42.077 E136.34711
G1 X71.234 Y48.250 E136.63586
G1 X71.748 Y48.323 E136.66016
G1 X71.822 Y47.809 E136.68445
G1 X71.822 Y46.927 E136.72569
G1 X71.381 Y46.486 E136.75487
G1 X71.381 Y44.134 E136.86487
G1 X71.454 Y43.620 E136.88919
G1 X73.659 Y41.415 E137.03503
G1 X76.305 Y41.415 E137.15878
G1 X77.481 Y42.591 E137.23657
G1 X78.657 Y41.415 E137.31436
G1 X81.303 Y41.415 E137.43811
G1 X82.479 Y42.591 E137.51590
G1 X83.655 Y41.415 E137.59369
G1 X86.301 Y41.415 E137.71744
G1 X87.477 Y42.591 E137.79523
G1 X88.652 Y41.415 E137.87302
G1 X89.828 Y41.415 E137.92802
G1 X90.343 Y41.342 E137.95232
G1 X91.372 Y40.313 E138.02037
G1 X91.372 Y39.137 E138.07538
G1 X91.445 Y38.622 E138.09970
G1 X91.739 Y38.328 E138.11914
G1 X91.812 Y37.814 E138.14343
G1 X91.812 Y37.226 E138.17093
G1 X91.739 Y36.712 E138.19522
G1 X91.445 Y36.418 E138.21466
G1 X91.372 Y35.903 E138.23898
G1 X91.372 Y34.139 E138.32149
G1 X91.445 Y33.624 E138.34581
G1 X91.739 Y33.330 E138.36525
G1 X91.812 Y32.816 E138.38954
G1 X91.812 Y28.700 E138.58205
G1 X91.886 Y28.185 E138.60637
G1 X92.474 Y27.597 E138.64526
G1 X97.178 Y27.597 E138.86526
G1 X99.383 Y28.920 E138.98553
G1 X99.824 Y29.067 E139.00728
G1 X100.118 Y29.361 E139.02672
G1 X100.559 Y29.508 E139.04846
G1 X104.601 Y31.934 E139.26897
G1 X105.042 Y32.375 E139.29814
G1 X105.042 Y32.669 E139.31189
G1 X104.895 Y32.816 E139.32161
G1 X104.895 Y33.110 E139.33536
G1 X104.748 Y33.257 E139.34508
G1 X104.748 Y33.551 E139.35883
G1 X104.528 Y33.919 E139.37889
G1 X104.087 Y35.242 E139.44411
G1 X103.866 Y35.609 E139.46413
G1 X103.866 Y35.903 E139.47787
G1 X103.719 Y36.050 E139.48759
G1 X103.719 Y36.344 E139.50134
G1 X103.572 Y36.491 E139.51106
G1 X103.572 Y36.785 E139.52481
G1 X103.352 Y37.153 E139.54488
G1 X102.911 Y38.476 E139.61009
G1 X102.691 Y38.843 E139.63011
G1 X102.691 Y39.137 E139.64386
G1 X102.544 Y39.284 E139.65358
G1 X102.544 Y39.578 E139.66733
G1 X102.397 Y39.725 E139.67705
G1 X102.397 Y40.019 E139.69080
G1 X102.176 Y40.386 E139.71086
G1 X101.735 Y41.709 E139.77608
G1 X101.882 Y42.003 E139.79143
G1 X103.352 Y43.473 E139.88866
G1 X103.572 Y43.840 E139.90872
G1 X103.572 Y46.486 E140.03247
G1 X102.544 Y47.515 E140.10052
G1 X102.764 Y47.882 E140.12054
G1 X103.352 Y48.470 E140.15944
G1 X103.572 Y48.838 E140.17950
G1 X103.572 Y51.190 E140.28951
G1 X103.646 Y51.410 E140.30035
G1 X106.292 Y51.410 E140.42410
G1 X107.467 Y52.586 E140.50189
G1 X108.643 Y51.410 E140.57968
G1 X111.289 Y51.410 E140.70343
G1 X111.362 Y50.896 E140.72772
G1 X111.362 Y49.132 E140.81023
G1 X111.436 Y48.617 E140.83455
G1 X112.318 Y47.735 E140.89288
G1 X112.391 Y47.515 E140.90373
G1 X111.362 Y46.486 E140.97179
G1 X111.362 Y44.134 E141.08179
G1 X111.436 Y43.620 E141.10611
G1 X112.906 Y42.150 E141.20334
G1 X113.053 Y41.856 E141.21869
G1 X112.612 Y40.533 E141.28391
G1 X112.391 Y40.166 E141.30397
G1 X112.391 Y39.872 E141.31772
G1 X112.244 Y39.725 E141.32744
G1 X112.244 Y39.431 E141.34119
G1 X112.097 Y39.284 E141.35091
G1 X112.097 Y38.990 E141.36465
G1 X111.877 Y38.622 E141.38467
G1 X111.436 Y37.300 E141.44989
G1 X111.216 Y36.932 E141.46996
G1 X111.216 Y36.638 E141.48370
G1 X111.069 Y36.491 E141.49342
G1 X111.069 Y36.197 E141.50717
G1 X110.922 Y36.050 E141.51689
G1 X110.922 Y35.756 E141.53064
G1 X110.701 Y35.389 E141.55066
G1 X110.260 Y34.066 E141.61588
G1 X110.040 Y33.698 E141.63594
G1 X110.040 Y33.404 E141.64969
G1 X109.893 Y33.257 E141.65941
G1 X109.893 Y32.963 E141.67316
G1 X109.746 Y32.816 E141.68288
G1 X109.746 Y32.522 E141.69662
G1 X110.334 Y31.934 E141.73552
G1 X112.171 Y30.831 E141.83575
G1 X112.612 Y30.684 E141.85750
G1 X112.906 Y30.390 E141.87694
G1 X113.347 Y30.243 E141.89868
G1 X113.641 Y29.949 E141.91812
G1 X114.082 Y29.802 E141.93987
G1 X117.389 Y27.818 E142.12024
G1 X117.904 Y27.744 E142.14456
G1 X122.314 Y27.744 E142.35081
G1 X122.902 Y28.332 E142.38971
G1 X122.975 Y28.847 E142.41403
G1 X122.975 Y32.963 E142.60654
G1 X123.196 Y33.330 E142.62656
G1 X123.490 Y33.624 E142.64600
G1 X123.563 Y34.139 E142.67032
G1 X123.563 Y35.903 E142.75282
G1 X123.490 Y36.418 E142.77715
G1 X123.196 Y36.712 E142.79659
G1 X122.975 Y37.079 E142.81660
G1 X122.975 Y37.667 E142.84410
G1 X123.049 Y38.181 E142.86839
G1 X123.343 Y38.475 E142.88783
G1 X123.563 Y38.843 E142.90790
G1 X123.563 Y40.607 E142.99040
G1 X124.151 Y41.195 E143.02930
G1 X124.519 Y41.415 E143.04932
G1 X126.283 Y41.415 E143.13182
G1 X127.458 Y42.591 E143.20961
G1 X128.634 Y41.415 E143.28740
G1 X131.280 Y41.415 E143.41115
G1 X132.456 Y42.591 E143.48894
G1 X133.632 Y41.415 E143.56673
G1 X136.278 Y41.415 E143.69048
G1 X137.454 Y42.591 E143.76826
G1 X138.630 Y41.415 E143.84605
G1 X141.276 Y41.415 E143.96980
G1 X143.481 Y43.620 E144.11565
G1 X143.554 Y43.105 E144.13994
G1 X143.554 Y41.930 E144.19495
G1 X145.465 Y40.019 E144.32135
G1 X145.465 Y30.611 E144.76135
G1 X145.465 Y28.847 E144.84386
G1 X145.539 Y28.332 E144.86818
G1 X146.127 Y27.744 E144.90707
G1 X150.830 Y27.744 E145.12708
G1 X151.271 Y27.891 E145.14882
G1 X154.946 Y30.096 E145.34926
G1 X155.387 Y30.243 E145.37100
G1 X155.681 Y30.537 E145.39044
G1 X156.122 Y30.684 E145.41219
G1 X157.960 Y31.787 E145.51242
G1 X158.695 Y32.522 E145.56104
G1 X158.695 Y33.110 E145.58853
G1 X158.474 Y33.478 E145.60860
G1 X158.033 Y34.801 E145.67381
G1 X157.813 Y35.168 E145.69383
G1 X157.813 Y35.462 E145.70758
G1 X157.666 Y35.609 E145.71730
G1 X157.666 Y35.903 E145.73105
G1 X157.519 Y36.050 E145.74077
G1 X157.519 Y36.344 E145.75452
G1 X157.298 Y36.712 E145.77458
G1 X156.857 Y38.035 E145.83980
G1 X156.637 Y38.402 E145.85982
G1 X156.637 Y38.696 E145.87357
G1 X156.490 Y38.843 E145.88329
G1 X156.490 Y39.137 E145.89703
G1 X156.343 Y39.284 E145.90675
G1 X156.343 Y39.578 E145.92050
G1 X156.122 Y39.945 E145.94057
G1 X155.681 Y41.268 E146.00578
G1 X155.461 Y41.636 E146.02580
G1 X155.461 Y41.930 E146.03955
G1 X155.314 Y42.077 E146.04927
G1 X155.314 Y42.371 E146.06302
G1 X155.167 Y42.518 E146.07274
G1 X155.167 Y42.811 E146.08649
G1 X154.946 Y43.179 E146.10655
G1 X154.505 Y44.502 E146.17177
G1 X154.285 Y44.869 E146.19179
G1 X154.285 Y45.163 E146.20554
G1 X154.138 Y45.310 E146.21526
G1 X154.138 Y45.604 E146.22900
G1 X153.991 Y45.751 E146.23872
G1 X153.991 Y46.045 E146.25247
G1 X153.770 Y46.413 E146.27254
G1 X153.329 Y47.736 E146.33775
G1 X153.109 Y48.103 E146.35777
G1 X153.109 Y48.397 E146.37152
G1 X152.962 Y48.544 E146.38124
G1 X152.962 Y48.838 E146.39499
G1 X152.815 Y48.985 E146.40471
G1 X152.815 Y49.279 E146.41846
G1 X152.594 Y49.647 E146.43852
G1 X152.153 Y50.970 E146.50374
G1 X151.933 Y51.337 E146.52376
G1 X151.933 Y51.631 E146.53751
G1 X151.786 Y51.778 E146.54723
G1 X151.786 Y52.072 E146.56097
G1 X151.639 Y52.219 E146.57069
G1 X151.639 Y52.513 E146.58444
G1 X151.418 Y52.881 E146.60451
G1 X150.977 Y54.204 E146.66972
G1 X150.757 Y54.571 E146.68974
G1 X150.757 Y54.865 E146.70349
G1 X150.610 Y55.012 E146.71321
G1 X150.610 Y55.306 E146.72696
G1 X150.463 Y55.453 E146.73668
G1 X150.463 Y55.747 E146.75043
G1 X150.316 Y55.894 E146.76015
G1 X150.316 Y56.188 E146.77390
G1 X150.095 Y56.556 E146.79396
G1 X149.654 Y57.879 E146.85918
G1 X149.434 Y58.246 E146.87920
G1 X149.434 Y58.540 E146.89294
G1 X149.287 Y58.687 E146.90266
G1 X149.287 Y58.981 E146.91641
G1 X149.140 Y59.128 E146.92613
G1 X149.140 Y59.422 E146.93988
G1 X148.919 Y59.789 E146.95995
G1 X148.478 Y61.112 E147.02516
G1 X148.258 Y61.480 E147.04518
G1 X148.258 Y61.774 E147.05893
G1 X148.111 Y61.921 E147.06865
G1 X148.111 Y62.214 E147.08240
G1 X147.964 Y62.361 E147.09212
G1 X147.964 Y62.655 E147.10587
G1 X147.743 Y63.023 E147.12593
G1 X147.302 Y64.346 E147.19115
G1 X147.082 Y64.713 E147.21117
G1 X147.082 Y65.007 E147.22491
G1 X146.935 Y65.154 E147.23463
G1 X146.935 Y65.448 E147.24838
G1 X146.347 Y66.036 E147.28728
G1 X145.980 Y66.257 E147.30734
G1 X136.572 Y66.257 E147.74734
G1 X127.164 Y66.257 E148.18735
G1 X122.461 Y66.257 E148.40735
G1 X122.093 Y66.036 E148.42741
G1 X121.652 Y65.595 E148.45659
G1 X121.652 Y65.301 E148.47034
G1 X121.432 Y64.934 E148.49036
G1 X120.844 Y63.170 E148.57732
G1 X120.623 Y62.802 E148.59738
G1 X120.623 Y62.508 E148.61113
G1 X120.476 Y62.361 E148.62085
G1 X120.476 Y62.067 E148.63460
G1 X120.329 Y61.921 E148.64432
G1 X120.329 Y61.627 E148.65807
G1 X120.109 Y61.259 E148.67809
G1 X119.521 Y59.495 E148.76505
G1 X119.300 Y59.128 E148.78511
G1 X119.300 Y58.834 E148.79886
G1 X119.153 Y58.687 E148.80858
G1 X119.153 Y58.393 E148.82233
G1 X119.006 Y58.246 E148.83205
G1 X119.006 Y57.952 E148.84579
G1 X118.786 Y57.585 E148.86581
G1 X118.492 Y56.703 E148.90930
G1 X118.125 Y56.923 E148.92932
G1 X116.361 Y58.687 E149.04599
G1 X115.846 Y58.760 E149.07031
G1 X114.082 Y58.760 E149.15282
G1 X113.567 Y58.687 E149.17714
G1 X112.685 Y57.805 E149.23547
G1 X112.392 Y57.658 E149.25082
G1 X111.510 Y58.540 E149.30916
G1 X111.142 Y58.760 E149.32922
G1 X108.790 Y58.760 E149.43922
